(G-CODE GENERATED BY FLATCAM v8.994 - www.flatcam.org - Version Date: 2020/11/7)

(Name: Gerber_Drill_PTH.DRL_cnc)
(Type: G-code from Geometry)
(Units: MM)

(Created on Monday, 28 June 2021 at 01:13)

(This preprocessor is the default preprocessor used by FlatCAM.)
(It is made to work with MACH3 compatible motion controllers.)


(TOOLS DIAMETER: )
(Tool: 1 -> Dia: 0.8)
(Tool: 2 -> Dia: 0.901)
(Tool: 3 -> Dia: 1.0)

(FEEDRATE Z: )
(Tool: 1 -> Feedrate: 120.0)
(Tool: 2 -> Feedrate: 120.0)
(Tool: 3 -> Feedrate: 120.0)

(FEEDRATE RAPIDS: )
(Tool: 1 -> Feedrate Rapids: 1500)
(Tool: 2 -> Feedrate Rapids: 1500)
(Tool: 3 -> Feedrate Rapids: 1500)

(Z_CUT: )
(Tool: 1 -> Z_Cut: -2.0)
(Tool: 2 -> Z_Cut: -2.0)
(Tool: 3 -> Z_Cut: -2.0)

(Tools Offset: )
(Tool: 1 -> Offset Z: 0.0)
(Tool: 2 -> Offset Z: 0.0)
(Tool: 3 -> Offset Z: 0.0)

(Z_MOVE: )
(Tool: 1 -> Z_Move: 2)
(Tool: 2 -> Z_Move: 2)
(Tool: 3 -> Z_Move: 2)

(Z Toolchange: 15 mm)
(X,Y Toolchange: 0.0000, 0.0000 mm)
(Z Start: None mm)
(Z End: 15.0 mm)
(X,Y End: 0.0000, 0.0000 mm)
(Steps per circle: 64)
(Preprocessor Excellon: Default_no_M6)

(X range:    4.7711 ...   83.8241  mm)
(Y range:    5.8360 ...   45.9165  mm)

(Spindle Speed: 10000 RPM)
G21
G90
G94

G01 F120.00

M5
G00 Z15.0000
T1
G00 X0.0000 Y0.0000                
(MSG, Change to Tool Dia = 0.8000 ||| Total drills for tool T1 = 65)

G00 Z15.0000
        
G01 F120.00
M03 S10000
G00 X19.4056 Y23.8600
G01 Z-2.0000
G01 Z0
G00 Z2.0000
G00 X19.4056 Y20.5740
G01 Z-2.0000
G01 Z0
G00 Z2.0000
G00 X8.1026 Y22.1450
G01 Z-2.0000
G01 Z0
G00 Z2.0000
G00 X8.1026 Y17.1440
G01 Z-2.0000
G01 Z0
G00 Z2.0000
G00 X8.1026 Y12.1450
G01 Z-2.0000
G01 Z0
G00 Z2.0000
G00 X19.4056 Y14.2240
G01 Z-2.0000
G01 Z0
G00 Z2.0000
G00 X19.4056 Y11.6840
G01 Z-2.0000
G01 Z0
G00 Z2.0000
G00 X19.4056 Y9.1440
G01 Z-2.0000
G01 Z0
G00 Z2.0000
G00 X19.4056 Y6.6040
G01 Z-2.0000
G01 Z0
G00 Z2.0000
G00 X29.2326 Y6.3360
G01 Z-2.0000
G01 Z0
G00 Z2.0000
G00 X31.7726 Y6.3360
G01 Z-2.0000
G01 Z0
G00 Z2.0000
G00 X34.3126 Y6.3360
G01 Z-2.0000
G01 Z0
G00 Z2.0000
G00 X36.8526 Y6.3360
G01 Z-2.0000
G01 Z0
G00 Z2.0000
G00 X39.3926 Y6.3360
G01 Z-2.0000
G01 Z0
G00 Z2.0000
G00 X41.9326 Y6.3360
G01 Z-2.0000
G01 Z0
G00 Z2.0000
G00 X44.4726 Y6.3360
G01 Z-2.0000
G01 Z0
G00 Z2.0000
G00 X47.0126 Y6.3360
G01 Z-2.0000
G01 Z0
G00 Z2.0000
G00 X49.5526 Y6.3360
G01 Z-2.0000
G01 Z0
G00 Z2.0000
G00 X52.0926 Y6.3360
G01 Z-2.0000
G01 Z0
G00 Z2.0000
G00 X54.6326 Y6.3360
G01 Z-2.0000
G01 Z0
G00 Z2.0000
G00 X57.1726 Y6.3360
G01 Z-2.0000
G01 Z0
G00 Z2.0000
G00 X59.7126 Y6.3360
G01 Z-2.0000
G01 Z0
G00 Z2.0000
G00 X62.2526 Y6.3360
G01 Z-2.0000
G01 Z0
G00 Z2.0000
G00 X64.7926 Y6.3360
G01 Z-2.0000
G01 Z0
G00 Z2.0000
G00 X67.3326 Y6.3360
G01 Z-2.0000
G01 Z0
G00 Z2.0000
G00 X69.8726 Y6.3360
G01 Z-2.0000
G01 Z0
G00 Z2.0000
G00 X72.4126 Y6.3360
G01 Z-2.0000
G01 Z0
G00 Z2.0000
G00 X74.9526 Y6.3360
G01 Z-2.0000
G01 Z0
G00 Z2.0000
G00 X74.9526 Y31.7800
G01 Z-2.0000
G01 Z0
G00 Z2.0000
G00 X72.4126 Y31.7800
G01 Z-2.0000
G01 Z0
G00 Z2.0000
G00 X69.8726 Y31.7800
G01 Z-2.0000
G01 Z0
G00 Z2.0000
G00 X67.3326 Y31.7800
G01 Z-2.0000
G01 Z0
G00 Z2.0000
G00 X64.7926 Y31.7800
G01 Z-2.0000
G01 Z0
G00 Z2.0000
G00 X71.6026 Y37.4650
G01 Z-2.0000
G01 Z0
G00 Z2.0000
G00 X78.3736 Y41.5290
G01 Z-2.0000
G01 Z0
G00 Z2.0000
G00 X83.3736 Y41.5290
G01 Z-2.0000
G01 Z0
G00 Z2.0000
G00 X71.6026 Y45.0850
G01 Z-2.0000
G01 Z0
G00 Z2.0000
G00 X65.8476 Y41.7830
G01 Z-2.0000
G01 Z0
G00 Z2.0000
G00 X60.8476 Y41.7830
G01 Z-2.0000
G01 Z0
G00 Z2.0000
G00 X54.7116 Y45.3390
G01 Z-2.0000
G01 Z0
G00 Z2.0000
G00 X48.5756 Y41.6560
G01 Z-2.0000
G01 Z0
G00 Z2.0000
G00 X54.7116 Y37.7190
G01 Z-2.0000
G01 Z0
G00 Z2.0000
G00 X62.2526 Y31.7800
G01 Z-2.0000
G01 Z0
G00 Z2.0000
G00 X59.7126 Y31.7800
G01 Z-2.0000
G01 Z0
G00 Z2.0000
G00 X57.1726 Y31.7800
G01 Z-2.0000
G01 Z0
G00 Z2.0000
G00 X54.6326 Y31.7800
G01 Z-2.0000
G01 Z0
G00 Z2.0000
G00 X52.0926 Y31.7800
G01 Z-2.0000
G01 Z0
G00 Z2.0000
G00 X49.5526 Y31.7800
G01 Z-2.0000
G01 Z0
G00 Z2.0000
G00 X47.0126 Y31.7800
G01 Z-2.0000
G01 Z0
G00 Z2.0000
G00 X44.4726 Y31.7800
G01 Z-2.0000
G01 Z0
G00 Z2.0000
G00 X41.9326 Y31.7800
G01 Z-2.0000
G01 Z0
G00 Z2.0000
G00 X39.3926 Y31.7800
G01 Z-2.0000
G01 Z0
G00 Z2.0000
G00 X36.8526 Y31.7800
G01 Z-2.0000
G01 Z0
G00 Z2.0000
G00 X34.3126 Y31.7800
G01 Z-2.0000
G01 Z0
G00 Z2.0000
G00 X31.7726 Y31.7800
G01 Z-2.0000
G01 Z0
G00 Z2.0000
G00 X29.2326 Y31.7800
G01 Z-2.0000
G01 Z0
G00 Z2.0000
G00 X38.0746 Y37.8460
G01 Z-2.0000
G01 Z0
G00 Z2.0000
G00 X43.5756 Y41.6560
G01 Z-2.0000
G01 Z0
G00 Z2.0000
G00 X38.0746 Y45.4660
G01 Z-2.0000
G01 Z0
G00 Z2.0000
G00 X31.5576 Y41.7830
G01 Z-2.0000
G01 Z0
G00 Z2.0000
G00 X26.5576 Y41.7830
G01 Z-2.0000
G01 Z0
G00 Z2.0000
G00 X19.2786 Y37.3380
G01 Z-2.0000
G01 Z0
G00 Z2.0000
G00 X10.2216 Y41.6560
G01 Z-2.0000
G01 Z0
G00 Z2.0000
G00 X5.2216 Y41.6560
G01 Z-2.0000
G01 Z0
G00 Z2.0000
G00 X19.2786 Y29.7180
G01 Z-2.0000
G01 Z0
G00 Z2.0000
M05
G00 Z15.00
G00 X0.0 Y0.0


