(G-CODE GENERATED BY FLATCAM v8.994 - www.flatcam.org - Version Date: 2020/11/7)

(Name: Gerber_Drill_NPTH.DRL_cnc)
(Type: G-code from Geometry)
(Units: MM)

(Created on Monday, 28 June 2021 at 01:13)

(This preprocessor is the default preprocessor used by FlatCAM.)
(It is made to work with MACH3 compatible motion controllers.)


(TOOLS DIAMETER: )
(Tool: 1 -> Dia: 3.101)

(FEEDRATE Z: )
(Tool: 1 -> Feedrate: 120.0)

(FEEDRATE RAPIDS: )
(Tool: 1 -> Feedrate Rapids: 1500)

(Z_CUT: )
(Tool: 1 -> Z_Cut: -2.0)

(Tools Offset: )
(Tool: 1 -> Offset Z: 0.0)

(Z_MOVE: )
(Tool: 1 -> Z_Move: 2)

(Z Toolchange: 15 mm)
(X,Y Toolchange: 0.0000, 0.0000 mm)
(Z Start: None mm)
(Z End: 15.0 mm)
(X,Y End: 0.0000, 0.0000 mm)
(Steps per circle: 64)
(Preprocessor Excellon: Default_no_M6)

(X range:    5.7901 ...   85.0911  mm)
(Y range:    3.5295 ...   48.9215  mm)

(Spindle Speed: 10000 RPM)
G21
G90
G94

G01 F120.00

M5
G00 Z15.0000
T1
G00 X0.0000 Y0.0000                
(MSG, Change to Tool Dia = 3.1010 ||| Total drills for tool T1 = 4)

G00 Z15.0000
        
G01 F120.00
M03 S10000
G00 X83.5406 Y32.6390
G01 Z-2.0000
G01 Z0
G00 Z2.0000
G00 X83.5406 Y5.2070
G01 Z-2.0000
G01 Z0
G00 Z2.0000
G00 X7.3406 Y5.0800
G01 Z-2.0000
G01 Z0
G00 Z2.0000
G00 X17.3736 Y47.3710
G01 Z-2.0000
G01 Z0
G00 Z2.0000
M05
G00 Z15.00
G00 X0.0 Y0.0


