(G-CODE GENERATED BY FLATCAM v8.994 - www.flatcam.org - Version Date: 2020/11/7)

(Name: Gerber_TopLayer.GTL_iso_combined_cnc)
(Type: G-code from Geometry)
(Units: MM)

(Created on Monday, 28 June 2021 at 01:08)

(This preprocessor is used with a motion controller loaded with GRBL firmware.)
(It is configured to be compatible with almost any version of GRBL firmware.)

(TOOL DIAMETER: 0.1 mm)
(Feedrate_XY: 60.0 mm/min)
(Feedrate_Z: 60.0 mm/min)
(Feedrate rapids 1500.0 mm/min)

(Z_Cut: 0.0 mm)
(Z_Move: 2.0 mm)
(Z Start: None mm)
(Z End: 15.0 mm)
(X,Y End: 0.0000, 0.0000 mm)
(Steps per circle: 64)
(Steps per circle: 64)
(Preprocessor Geometry: GRBL_11_no_M6)

(X range:    3.2693 ...   85.0988  mm)
(Y range:    2.2954 ...   49.7741  mm)

(Spindle Speed: 1000.0 RPM)
G21
G90
G17
G94


G01 F60.00

M5             
G00 Z15.0000
G00 X0.0000 Y0.0000                
T1
(MSG, Change to Tool Dia = 0.1000)

G00 Z15.0000
        
M03 S1000.0
G01 F60.00
G00 X8.8934 Y10.6185
G01 F60.00
G01 Z0.0000
G01 F60.00
G01 X16.8317 Y2.6802 F60.00
G01 X16.8696 Y2.6459 F60.00
G01 X16.9058 Y2.6189 F60.00
G01 X16.9155 Y2.6123 F60.00
G01 X16.9492 Y2.5921 F60.00
G01 X16.9596 Y2.5866 F60.00
G01 X17.0005 Y2.5674 F60.00
G01 X17.0486 Y2.5502 F60.00
G01 X17.0981 Y2.5378 F60.00
G01 X17.1457 Y2.5306 F60.00
G01 X17.1545 Y2.5299 F60.00
G01 X17.1996 Y2.5278 F60.00
G01 X45.3136 Y2.5278 F60.00
G01 X45.3587 Y2.5299 F60.00
G01 X45.3675 Y2.5306 F60.00
G01 X45.4151 Y2.5378 F60.00
G01 X45.4589 Y2.5486 F60.00
G01 X45.4702 Y2.5520 F60.00
G01 X45.5072 Y2.5653 F60.00
G01 X45.5180 Y2.5698 F60.00
G01 X45.5588 Y2.5892 F60.00
G01 X45.6026 Y2.6155 F60.00
G01 X45.6436 Y2.6459 F60.00
G01 X45.6772 Y2.6761 F60.00
G01 X47.3804 Y4.3792 F60.00
G01 X47.4109 Y4.4125 F60.00
G01 X47.4166 Y4.4193 F60.00
G01 X47.4451 Y4.4580 F60.00
G01 X47.4685 Y4.4967 F60.00
G01 X47.4740 Y4.5070 F60.00
G01 X47.4932 Y4.5479 F60.00
G01 X47.5086 Y4.5904 F60.00
G01 X47.5120 Y4.6017 F60.00
G01 X47.5228 Y4.6455 F60.00
G01 X47.5296 Y4.6902 F60.00
G01 X47.5307 Y4.7019 F60.00
G01 X47.5328 Y4.7470 F60.00
G01 X47.5328 Y5.2340 F60.00
G01 X47.5824 Y5.2574 F60.00
G01 X47.5903 Y5.2615 F60.00
G01 X47.6879 Y5.3200 F60.00
G01 X47.6952 Y5.3250 F60.00
G01 X47.7819 Y5.3893 F60.00
G01 X47.7888 Y5.3949 F60.00
G01 X47.8710 Y5.4693 F60.00
G01 X47.8793 Y5.4776 F60.00
G01 X47.9557 Y5.5621 F60.00
G01 X48.0253 Y5.6558 F60.00
G01 X48.0301 Y5.6632 F60.00
G01 X48.0885 Y5.7609 F60.00
G01 X48.1373 Y5.8638 F60.00
G01 X48.1419 Y5.8747 F60.00
G01 X48.1801 Y5.9819 F60.00
G01 X48.2079 Y6.0923 F60.00
G01 X48.2102 Y6.1038 F60.00
G01 X48.2264 Y6.2135 F60.00
G01 X48.2272 Y6.2223 F60.00
G01 X48.2325 Y6.3301 F60.00
G01 X48.2325 Y6.3419 F60.00
G01 X48.2267 Y6.4556 F60.00
G01 X48.2092 Y6.5740 F60.00
G01 X48.1816 Y6.6845 F60.00
G01 X48.1782 Y6.6958 F60.00
G01 X48.1397 Y6.8029 F60.00
G01 X48.0885 Y6.9111 F60.00
G01 X48.0270 Y7.0138 F60.00
G01 X47.9593 Y7.1053 F60.00
G01 X47.9518 Y7.1144 F60.00
G01 X47.8753 Y7.1987 F60.00
G01 X47.7910 Y7.2753 F60.00
G01 X47.7819 Y7.2827 F60.00
G01 X47.6904 Y7.3504 F60.00
G01 X47.5877 Y7.4120 F60.00
G01 X47.4849 Y7.4608 F60.00
G01 X47.4740 Y7.4653 F60.00
G01 X47.3667 Y7.5035 F60.00
G01 X47.2506 Y7.5326 F60.00
G01 X47.1380 Y7.5494 F60.00
G01 X47.1263 Y7.5506 F60.00
G01 X47.0126 Y7.5560 F60.00
G01 X46.8930 Y7.5502 F60.00
G01 X46.7804 Y7.5336 F60.00
G01 X46.7688 Y7.5313 F60.00
G01 X46.6585 Y7.5035 F60.00
G01 X46.5457 Y7.4632 F60.00
G01 X46.4375 Y7.4120 F60.00
G01 X46.3398 Y7.3536 F60.00
G01 X46.3300 Y7.3470 F60.00
G01 X46.2433 Y7.2827 F60.00
G01 X46.2364 Y7.2772 F60.00
G01 X46.1542 Y7.2028 F60.00
G01 X46.1459 Y7.1944 F60.00
G01 X46.0695 Y7.1100 F60.00
G01 X46.0016 Y7.0186 F60.00
G01 X45.9951 Y7.0088 F60.00
G01 X45.9367 Y6.9111 F60.00
G01 X45.8855 Y6.8029 F60.00
G01 X45.8470 Y6.6958 F60.00
G01 X45.8436 Y6.6845 F60.00
G01 X45.8160 Y6.5740 F60.00
G01 X45.7992 Y6.4615 F60.00
G01 X45.7980 Y6.4497 F60.00
G01 X45.7926 Y6.3360 F60.00
G01 X45.7985 Y6.2164 F60.00
G01 X45.8150 Y6.1038 F60.00
G01 X45.8173 Y6.0923 F60.00
G01 X45.8451 Y5.9819 F60.00
G01 X45.8833 Y5.8747 F60.00
G01 X45.8879 Y5.8638 F60.00
G01 X45.9367 Y5.7609 F60.00
G01 X45.9951 Y5.6632 F60.00
G01 X45.9999 Y5.6558 F60.00
G01 X46.0659 Y5.5667 F60.00
G01 X46.0734 Y5.5576 F60.00
G01 X46.1499 Y5.4734 F60.00
G01 X46.2364 Y5.3949 F60.00
G01 X46.2433 Y5.3893 F60.00
G01 X46.3300 Y5.3250 F60.00
G01 X46.3373 Y5.3200 F60.00
G01 X46.4349 Y5.2615 F60.00
G01 X46.4428 Y5.2574 F60.00
G01 X46.4924 Y5.2340 F60.00
G01 X46.4924 Y4.9625 F60.00
G01 X45.0981 Y3.5682 F60.00
G01 X17.4151 Y3.5682 F60.00
G01 X9.6291 Y11.3542 F60.00
G01 X9.6917 Y11.4868 F60.00
G01 X9.7485 Y11.6457 F60.00
G01 X9.7895 Y11.8095 F60.00
G01 X9.8136 Y11.9706 F60.00
G01 X9.8147 Y11.9823 F60.00
G01 X9.8224 Y12.1391 F60.00
G01 X9.8224 Y12.1509 F60.00
G01 X9.8143 Y12.3136 F60.00
G01 X9.7905 Y12.4748 F60.00
G01 X9.7883 Y12.4863 F60.00
G01 X9.7501 Y12.6386 F60.00
G01 X9.7467 Y12.6499 F60.00
G01 X9.6917 Y12.8032 F60.00
G01 X9.6195 Y12.9558 F60.00
G01 X9.5359 Y13.0956 F60.00
G01 X9.5293 Y13.1054 F60.00
G01 X9.4322 Y13.2362 F60.00
G01 X9.3188 Y13.3612 F60.00
G01 X9.1937 Y13.4746 F60.00
G01 X9.0630 Y13.5717 F60.00
G01 X9.0532 Y13.5783 F60.00
G01 X8.9185 Y13.6590 F60.00
G01 X8.9081 Y13.6646 F60.00
G01 X8.7608 Y13.7341 F60.00
G01 X8.6019 Y13.7909 F60.00
G01 X8.4381 Y13.8320 F60.00
G01 X8.2770 Y13.8560 F60.00
G01 X8.2653 Y13.8572 F60.00
G01 X8.1085 Y13.8649 F60.00
G01 X8.0967 Y13.8649 F60.00
G01 X7.9340 Y13.8567 F60.00
G01 X7.7670 Y13.8320 F60.00
G01 X7.6033 Y13.7909 F60.00
G01 X7.4499 Y13.7362 F60.00
G01 X7.4390 Y13.7317 F60.00
G01 X7.2918 Y13.6619 F60.00
G01 X7.1470 Y13.5751 F60.00
G01 X7.0114 Y13.4746 F60.00
G01 X6.8864 Y13.3612 F60.00
G01 X6.7730 Y13.2362 F60.00
G01 X6.6725 Y13.1006 F60.00
G01 X6.5857 Y12.9558 F60.00
G01 X6.5135 Y12.8032 F60.00
G01 X6.4567 Y12.6443 F60.00
G01 X6.4156 Y12.4806 F60.00
G01 X6.3909 Y12.3136 F60.00
G01 X6.3826 Y12.1450 F60.00
G01 X6.3909 Y11.9764 F60.00
G01 X6.4156 Y11.8095 F60.00
G01 X6.4567 Y11.6457 F60.00
G01 X6.5135 Y11.4868 F60.00
G01 X6.5857 Y11.3342 F60.00
G01 X6.6725 Y11.1894 F60.00
G01 X6.7730 Y11.0539 F60.00
G01 X6.8864 Y10.9288 F60.00
G01 X7.0114 Y10.8154 F60.00
G01 X7.1470 Y10.7149 F60.00
G01 X7.2918 Y10.6281 F60.00
G01 X7.4444 Y10.5559 F60.00
G01 X7.6033 Y10.4991 F60.00
G01 X7.7670 Y10.4581 F60.00
G01 X7.9340 Y10.4333 F60.00
G01 X8.1026 Y10.4250 F60.00
G01 X8.2712 Y10.4333 F60.00
G01 X8.4381 Y10.4581 F60.00
G01 X8.6019 Y10.4991 F60.00
G01 X8.7608 Y10.5559 F60.00
G01 X8.8934 Y10.6185 F60.00
G00 Z2.0000
G00 X6.4775 Y16.8670
G01 F60.00
G01 Z0.0000
G01 F60.00
G01 X6.4845 Y16.8206 F60.00
G01 X6.5240 Y16.6636 F60.00
G01 X6.5782 Y16.5123 F60.00
G01 X6.6480 Y16.3648 F60.00
G01 X6.7307 Y16.2270 F60.00
G01 X6.8271 Y16.0970 F60.00
G01 X6.9359 Y15.9770 F60.00
G01 X7.0568 Y15.8675 F60.00
G01 X7.1859 Y15.7718 F60.00
G01 X7.3248 Y15.6886 F60.00
G01 X7.4712 Y15.6193 F60.00
G01 X7.6236 Y15.5648 F60.00
G01 X7.7807 Y15.5254 F60.00
G01 X7.9409 Y15.5017 F60.00
G01 X8.1026 Y15.4937 F60.00
G01 X8.2655 Y15.5018 F60.00
G01 X8.4245 Y15.5254 F60.00
G01 X8.5816 Y15.5648 F60.00
G01 X8.7340 Y15.6193 F60.00
G01 X8.8804 Y15.6886 F60.00
G01 X9.0193 Y15.7718 F60.00
G01 X9.1493 Y15.8683 F60.00
G01 X9.2693 Y15.9770 F60.00
G01 X9.3781 Y16.0970 F60.00
G01 X9.4745 Y16.2270 F60.00
G01 X9.5578 Y16.3659 F60.00
G01 X9.6270 Y16.5123 F60.00
G01 X9.6815 Y16.6648 F60.00
G01 X9.7209 Y16.8218 F60.00
G01 X9.7446 Y16.9820 F60.00
G01 X9.7526 Y17.1437 F60.00
G01 X9.7448 Y17.3030 F60.00
G01 X9.7209 Y17.4656 F60.00
G01 X9.6808 Y17.6250 F60.00
G01 X9.6270 Y17.7751 F60.00
G01 X9.5589 Y17.9193 F60.00
G01 X9.4731 Y18.0624 F60.00
G01 X9.3781 Y18.1905 F60.00
G01 X9.2710 Y18.3087 F60.00
G01 X9.1493 Y18.4192 F60.00
G01 X9.0193 Y18.5156 F60.00
G01 X8.8825 Y18.5977 F60.00
G01 X8.7317 Y18.6690 F60.00
G01 X8.5816 Y18.7227 F60.00
G01 X8.4245 Y18.7620 F60.00
G01 X8.2643 Y18.7858 F60.00
G01 X8.1026 Y18.7937 F60.00
G01 X7.9409 Y18.7858 F60.00
G01 X7.7807 Y18.7620 F60.00
G01 X7.6236 Y18.7227 F60.00
G01 X7.4723 Y18.6686 F60.00
G01 X7.3248 Y18.5989 F60.00
G01 X7.1859 Y18.5156 F60.00
G01 X7.0558 Y18.4192 F60.00
G01 X6.9367 Y18.3113 F60.00
G01 X6.8271 Y18.1905 F60.00
G01 X6.7314 Y18.0614 F60.00
G01 X6.6480 Y17.9226 F60.00
G01 X6.6211 Y17.8661 F60.00
G01 X5.6725 Y18.8148 F60.00
G01 X5.6725 Y30.1145 F60.00
G01 X18.5792 Y17.2077 F60.00
G01 X18.6120 Y17.1780 F60.00
G01 X18.6495 Y17.1504 F60.00
G01 X18.6854 Y17.1290 F60.00
G01 X18.7231 Y17.1111 F60.00
G01 X18.7657 Y17.0956 F60.00
G01 X18.8122 Y17.0840 F60.00
G01 X18.8535 Y17.0780 F60.00
G01 X18.8976 Y17.0758 F60.00
G01 X46.2701 Y17.0758 F60.00
G01 X47.2510 Y16.0949 F60.00
G01 X47.2510 Y14.6742 F60.00
G01 X20.4633 Y14.6742 F60.00
G01 X20.4198 Y14.7661 F60.00
G01 X20.3618 Y14.8629 F60.00
G01 X20.2946 Y14.9536 F60.00
G01 X20.2205 Y15.0354 F60.00
G01 X20.1332 Y15.1145 F60.00
G01 X20.0445 Y15.1802 F60.00
G01 X19.9498 Y15.2370 F60.00
G01 X19.8434 Y15.2873 F60.00
G01 X19.7394 Y15.3245 F60.00
G01 X19.6299 Y15.3519 F60.00
G01 X19.5159 Y15.3686 F60.00
G01 X19.4056 Y15.3740 F60.00
G01 X19.2929 Y15.3685 F60.00
G01 X19.1812 Y15.3519 F60.00
G01 X19.0741 Y15.3251 F60.00
G01 X18.9633 Y15.2855 F60.00
G01 X18.8635 Y15.2382 F60.00
G01 X18.7667 Y15.1802 F60.00
G01 X18.6760 Y15.1130 F60.00
G01 X18.5924 Y15.0372 F60.00
G01 X18.5166 Y14.9536 F60.00
G01 X18.4508 Y14.8649 F60.00
G01 X18.3903 Y14.7639 F60.00
G01 X18.3431 Y14.6641 F60.00
G01 X18.3051 Y14.5578 F60.00
G01 X18.2777 Y14.4484 F60.00
G01 X18.2611 Y14.3367 F60.00
G01 X18.2556 Y14.2240 F60.00
G01 X18.2611 Y14.1113 F60.00
G01 X18.2777 Y13.9996 F60.00
G01 X18.3045 Y13.8925 F60.00
G01 X18.3441 Y13.7817 F60.00
G01 X18.3914 Y13.6819 F60.00
G01 X18.4494 Y13.5851 F60.00
G01 X18.5166 Y13.4944 F60.00
G01 X18.5924 Y13.4108 F60.00
G01 X18.6760 Y13.3350 F60.00
G01 X18.7647 Y13.2692 F60.00
G01 X18.8657 Y13.2087 F60.00
G01 X18.9655 Y13.1615 F60.00
G01 X19.0741 Y13.1229 F60.00
G01 X19.1812 Y13.0961 F60.00
G01 X19.2929 Y13.0795 F60.00
G01 X19.4056 Y13.0740 F60.00
G01 X19.5159 Y13.0794 F60.00
G01 X19.6323 Y13.0966 F60.00
G01 X19.7394 Y13.1235 F60.00
G01 X19.8479 Y13.1625 F60.00
G01 X19.9477 Y13.2098 F60.00
G01 X20.0445 Y13.2678 F60.00
G01 X20.1351 Y13.3350 F60.00
G01 X20.2188 Y13.4108 F60.00
G01 X20.2946 Y13.4944 F60.00
G01 X20.3618 Y13.5851 F60.00
G01 X20.4198 Y13.6819 F60.00
G01 X20.4633 Y13.7738 F60.00
G01 X69.3166 Y13.7738 F60.00
G01 X69.3607 Y13.7760 F60.00
G01 X69.4056 Y13.7827 F60.00
G01 X69.4473 Y13.7932 F60.00
G01 X69.4866 Y13.8072 F60.00
G01 X69.5288 Y13.8270 F60.00
G01 X69.5667 Y13.8497 F60.00
G01 X69.6003 Y13.8745 F60.00
G01 X69.6349 Y13.9057 F60.00
G01 X75.2709 Y19.5417 F60.00
G01 X75.3006 Y19.5744 F60.00
G01 X75.3269 Y19.6099 F60.00
G01 X75.3496 Y19.6478 F60.00
G01 X75.3694 Y19.6900 F60.00
G01 X75.3834 Y19.7293 F60.00
G01 X75.3941 Y19.7722 F60.00
G01 X75.4006 Y19.8159 F60.00
G01 X75.4028 Y19.8600 F60.00
G01 X75.4028 Y30.7222 F60.00
G01 X75.4947 Y30.7658 F60.00
G01 X75.5915 Y30.8238 F60.00
G01 X75.6822 Y30.8910 F60.00
G01 X75.7640 Y30.9651 F60.00
G01 X75.8431 Y31.0524 F60.00
G01 X75.9088 Y31.1411 F60.00
G01 X75.9668 Y31.2379 F60.00
G01 X76.0151 Y31.3399 F60.00
G01 X76.0531 Y31.4461 F60.00
G01 X76.0805 Y31.5556 F60.00
G01 X76.0968 Y31.6648 F60.00
G01 X76.1025 Y31.7824 F60.00
G01 X76.0971 Y31.8927 F60.00
G01 X76.0802 Y32.0055 F60.00
G01 X76.0531 Y32.1138 F60.00
G01 X76.0151 Y32.2201 F60.00
G01 X75.9668 Y32.3221 F60.00
G01 X75.9101 Y32.4168 F60.00
G01 X75.8416 Y32.5095 F60.00
G01 X75.7675 Y32.5914 F60.00
G01 X75.6802 Y32.6704 F60.00
G01 X75.5915 Y32.7362 F60.00
G01 X75.4947 Y32.7942 F60.00
G01 X75.3927 Y32.8424 F60.00
G01 X75.2864 Y32.8805 F60.00
G01 X75.1770 Y32.9079 F60.00
G01 X75.0653 Y32.9244 F60.00
G01 X74.9526 Y32.9300 F60.00
G01 X74.8423 Y32.9246 F60.00
G01 X74.7282 Y32.9079 F60.00
G01 X74.6211 Y32.8811 F60.00
G01 X74.5103 Y32.8414 F60.00
G01 X74.4105 Y32.7942 F60.00
G01 X74.3137 Y32.7362 F60.00
G01 X74.2230 Y32.6689 F60.00
G01 X74.1394 Y32.5931 F60.00
G01 X74.0636 Y32.5095 F60.00
G01 X73.9978 Y32.4209 F60.00
G01 X73.9373 Y32.3199 F60.00
G01 X73.8901 Y32.2201 F60.00
G01 X73.8521 Y32.1138 F60.00
G01 X73.8247 Y32.0043 F60.00
G01 X73.8083 Y31.8939 F60.00
G01 X73.8027 Y31.7775 F60.00
G01 X73.8081 Y31.6673 F60.00
G01 X73.8247 Y31.5556 F60.00
G01 X73.8521 Y31.4461 F60.00
G01 X73.8893 Y31.3422 F60.00
G01 X73.9396 Y31.2357 F60.00
G01 X73.9964 Y31.1411 F60.00
G01 X74.0621 Y31.0524 F60.00
G01 X74.1412 Y30.9651 F60.00
G01 X74.2230 Y30.8910 F60.00
G01 X74.3137 Y30.8238 F60.00
G01 X74.4105 Y30.7658 F60.00
G01 X74.5024 Y30.7222 F60.00
G01 X74.5024 Y20.0465 F60.00
G01 X69.1301 Y14.6742 F60.00
G01 X48.1514 Y14.6742 F60.00
G01 X48.1514 Y16.2826 F60.00
G01 X48.1492 Y16.3255 F60.00
G01 X48.1422 Y16.3716 F60.00
G01 X48.1320 Y16.4121 F60.00
G01 X48.1180 Y16.4514 F60.00
G01 X48.0988 Y16.4926 F60.00
G01 X48.0741 Y16.5335 F60.00
G01 X48.0492 Y16.5670 F60.00
G01 X48.0195 Y16.5998 F60.00
G01 X46.7732 Y17.8460 F60.00
G01 X46.7422 Y17.8740 F60.00
G01 X46.7067 Y17.9003 F60.00
G01 X46.6688 Y17.9230 F60.00
G01 X46.6311 Y17.9409 F60.00
G01 X46.5849 Y17.9575 F60.00
G01 X46.5444 Y17.9675 F60.00
G01 X46.4995 Y17.9741 F60.00
G01 X46.4566 Y17.9762 F60.00
G01 X19.0841 Y17.9762 F60.00
G01 X5.6720 Y31.3883 F60.00
G01 X5.6720 Y40.0698 F60.00
G01 X5.7019 Y40.0774 F60.00
G01 X5.8554 Y40.1326 F60.00
G01 X5.9995 Y40.2008 F60.00
G01 X6.1404 Y40.2855 F60.00
G01 X6.2685 Y40.3805 F60.00
G01 X6.3885 Y40.4893 F60.00
G01 X6.4972 Y40.6093 F60.00
G01 X6.5937 Y40.7393 F60.00
G01 X6.6769 Y40.8782 F60.00
G01 X6.7451 Y41.0223 F60.00
G01 X6.8013 Y41.1794 F60.00
G01 X6.8400 Y41.3341 F60.00
G01 X6.8638 Y41.4943 F60.00
G01 X6.8717 Y41.6560 F60.00
G01 X6.8639 Y41.8165 F60.00
G01 X6.8400 Y41.9779 F60.00
G01 X6.8007 Y42.1350 F60.00
G01 X6.7461 Y42.2874 F60.00
G01 X6.6769 Y42.4338 F60.00
G01 X6.5937 Y42.5727 F60.00
G01 X6.4972 Y42.7027 F60.00
G01 X6.3885 Y42.8227 F60.00
G01 X6.2665 Y42.9330 F60.00
G01 X6.1384 Y43.0279 F60.00
G01 X5.9973 Y43.1123 F60.00
G01 X5.8532 Y43.1804 F60.00
G01 X5.7030 Y43.2342 F60.00
G01 X5.5460 Y43.2738 F60.00
G01 X5.3835 Y43.2981 F60.00
G01 X5.2217 Y43.3060 F60.00
G01 X5.0600 Y43.2981 F60.00
G01 X4.8986 Y43.2740 F60.00
G01 X4.7428 Y43.2350 F60.00
G01 X4.5903 Y43.1804 F60.00
G01 X4.4439 Y43.1112 F60.00
G01 X4.3071 Y43.0292 F60.00
G01 X4.1731 Y42.9299 F60.00
G01 X4.0550 Y42.8227 F60.00
G01 X3.9463 Y42.7027 F60.00
G01 X3.8498 Y42.5727 F60.00
G01 X3.7666 Y42.4338 F60.00
G01 X3.6973 Y42.2874 F60.00
G01 X3.6435 Y42.1373 F60.00
G01 X3.6030 Y41.9755 F60.00
G01 X3.5797 Y41.8177 F60.00
G01 X3.5717 Y41.6560 F60.00
G01 X3.5797 Y41.4943 F60.00
G01 X3.6030 Y41.3365 F60.00
G01 X3.6435 Y41.1747 F60.00
G01 X3.6973 Y41.0246 F60.00
G01 X3.7666 Y40.8782 F60.00
G01 X3.8498 Y40.7393 F60.00
G01 X3.9448 Y40.6112 F60.00
G01 X4.0568 Y40.4876 F60.00
G01 X4.1750 Y40.3805 F60.00
G01 X4.3050 Y40.2841 F60.00
G01 X4.4439 Y40.2008 F60.00
G01 X4.5881 Y40.1326 F60.00
G01 X4.7416 Y40.0774 F60.00
G01 X4.7716 Y40.0698 F60.00
G01 X4.7716 Y31.2019 F60.00
G01 X4.7721 Y31.1903 F60.00
G01 X4.7721 Y18.6283 F60.00
G01 X4.7741 Y18.5866 F60.00
G01 X4.7807 Y18.5405 F60.00
G01 X4.7908 Y18.5000 F60.00
G01 X4.8074 Y18.4538 F60.00
G01 X4.8252 Y18.4161 F60.00
G01 X4.8480 Y18.3782 F60.00
G01 X4.8743 Y18.3427 F60.00
G01 X4.9040 Y18.3100 F60.00
G01 X6.2213 Y16.9927 F60.00
G01 X6.2523 Y16.9647 F60.00
G01 X6.2858 Y16.9398 F60.00
G01 X6.3268 Y16.9151 F60.00
G01 X6.3656 Y16.8968 F60.00
G01 X6.4060 Y16.8822 F60.00
G01 X6.4489 Y16.8714 F60.00
G01 X6.4775 Y16.8670 F60.00
G00 Z2.0000
G00 X6.5797 Y18.2095
G01 F60.00
G01 Z0.0000
G01 F60.00
G01 X6.5776 Y18.2067 F60.00
G01 X6.5750 Y18.2092 F60.00
G01 X6.5797 Y18.2095 F60.00
G00 Z2.0000
G00 X7.1890 Y20.4199
G01 F60.00
G01 Z0.0000
G01 F60.00
G01 X7.1824 Y20.4231 F60.00
G01 X7.0179 Y20.5217 F60.00
G01 X6.8639 Y20.6356 F60.00
G01 X6.7222 Y20.7643 F60.00
G01 X6.5934 Y20.9065 F60.00
G01 X6.4790 Y21.0605 F60.00
G01 X6.3810 Y21.2244 F60.00
G01 X6.3776 Y21.2316 F60.00
G01 X6.7286 Y21.2316 F60.00
G01 X6.7321 Y21.2263 F60.00
G01 X6.8271 Y21.0982 F60.00
G01 X6.9359 Y20.9783 F60.00
G01 X7.0558 Y20.8695 F60.00
G01 X7.1839 Y20.7745 F60.00
G01 X7.1890 Y20.7711 F60.00
G01 X7.1890 Y20.4199 F60.00
G00 Z2.0000
G00 X6.6303 Y21.0916
G01 F60.00
G01 Z0.0000
G01 F60.00
G01 X6.6576 Y21.0916 F60.00
G01 X6.7132 Y21.0168 F60.00
G01 X6.7219 Y21.0058 F60.00
G01 X6.8369 Y20.8793 F60.00
G01 X6.9635 Y20.7643 F60.00
G01 X6.9744 Y20.7556 F60.00
G01 X7.0490 Y20.7002 F60.00
G01 X7.0490 Y20.6728 F60.00
G01 X6.9528 Y20.7439 F60.00
G01 X6.8214 Y20.8633 F60.00
G01 X6.7017 Y20.9954 F60.00
G01 X6.6303 Y21.0916 F60.00
G00 Z2.0000
G00 X6.5001 Y21.1616
G01 F60.00
G01 Z0.0000
G01 F60.00
G01 X6.6929 Y21.1616 F60.00
G01 X6.7730 Y21.0538 F60.00
G01 X6.8864 Y20.9288 F60.00
G01 X7.0114 Y20.8154 F60.00
G01 X7.1190 Y20.7354 F60.00
G01 X7.1190 Y20.5426 F60.00
G01 X7.0568 Y20.5800 F60.00
G01 X6.9083 Y20.6897 F60.00
G01 X6.7718 Y20.8138 F60.00
G01 X6.6476 Y20.9510 F60.00
G01 X6.5373 Y21.0995 F60.00
G01 X6.5001 Y21.1616 F60.00
G00 Z2.0000
G00 X6.7286 Y23.0583
G01 F60.00
G01 Z0.0000
G01 F60.00
G01 X6.3776 Y23.0583 F60.00
G01 X6.3810 Y23.0655 F60.00
G01 X6.4790 Y23.2294 F60.00
G01 X6.5934 Y23.3835 F60.00
G01 X6.7222 Y23.5257 F60.00
G01 X6.8639 Y23.6544 F60.00
G01 X7.0179 Y23.7683 F60.00
G01 X7.1824 Y23.8669 F60.00
G01 X7.1890 Y23.8701 F60.00
G01 X7.1890 Y23.5188 F60.00
G01 X7.1839 Y23.5155 F60.00
G01 X7.0558 Y23.4204 F60.00
G01 X6.9359 Y23.3117 F60.00
G01 X6.8271 Y23.1917 F60.00
G01 X6.7321 Y23.0637 F60.00
G01 X6.7286 Y23.0583 F60.00
G00 Z2.0000
G00 X6.6576 Y23.1983
G01 F60.00
G01 Z0.0000
G01 F60.00
G01 X6.6303 Y23.1983 F60.00
G01 X6.7017 Y23.2945 F60.00
G01 X6.8214 Y23.4266 F60.00
G01 X6.9528 Y23.5461 F60.00
G01 X7.0490 Y23.6172 F60.00
G01 X7.0490 Y23.5897 F60.00
G01 X6.9744 Y23.5344 F60.00
G01 X6.9635 Y23.5257 F60.00
G01 X6.8369 Y23.4107 F60.00
G01 X6.7219 Y23.2841 F60.00
G01 X6.7132 Y23.2732 F60.00
G01 X6.6576 Y23.1983 F60.00
G00 Z2.0000
G00 X6.5001 Y23.1283
G01 F60.00
G01 Z0.0000
G01 F60.00
G01 X6.5373 Y23.1905 F60.00
G01 X6.6476 Y23.3390 F60.00
G01 X6.7718 Y23.4762 F60.00
G01 X6.9083 Y23.6002 F60.00
G01 X7.0567 Y23.7100 F60.00
G01 X7.1190 Y23.7473 F60.00
G01 X7.1190 Y23.5545 F60.00
G01 X7.0114 Y23.4746 F60.00
G01 X6.8864 Y23.3612 F60.00
G01 X6.7730 Y23.2361 F60.00
G01 X6.6929 Y23.1283 F60.00
G01 X6.5001 Y23.1283 F60.00
G00 Z2.0000
G00 X9.0862 Y23.7473
G01 F60.00
G01 Z0.0000
G01 F60.00
G01 X9.1484 Y23.7100 F60.00
G01 X9.2969 Y23.6002 F60.00
G01 X9.4334 Y23.4762 F60.00
G01 X9.5576 Y23.3390 F60.00
G01 X9.6679 Y23.1905 F60.00
G01 X9.7051 Y23.1283 F60.00
G01 X9.5123 Y23.1283 F60.00
G01 X9.4322 Y23.2361 F60.00
G01 X9.3188 Y23.3612 F60.00
G01 X9.1937 Y23.4746 F60.00
G01 X9.0862 Y23.5545 F60.00
G01 X9.0862 Y23.7473 F60.00
G00 Z2.0000
G00 X9.1562 Y23.6172
G01 F60.00
G01 Z0.0000
G01 F60.00
G01 X9.2524 Y23.5461 F60.00
G01 X9.3838 Y23.4266 F60.00
G01 X9.5035 Y23.2945 F60.00
G01 X9.5749 Y23.1983 F60.00
G01 X9.5475 Y23.1983 F60.00
G01 X9.4920 Y23.2732 F60.00
G01 X9.4833 Y23.2841 F60.00
G01 X9.3683 Y23.4107 F60.00
G01 X9.2417 Y23.5257 F60.00
G01 X9.2308 Y23.5344 F60.00
G01 X9.1562 Y23.5897 F60.00
G01 X9.1562 Y23.6172 F60.00
G00 Z2.0000
G00 X9.8276 Y23.0583
G01 F60.00
G01 Z0.0000
G01 F60.00
G01 X9.4766 Y23.0583 F60.00
G01 X9.4731 Y23.0637 F60.00
G01 X9.3781 Y23.1917 F60.00
G01 X9.2693 Y23.3117 F60.00
G01 X9.1493 Y23.4204 F60.00
G01 X9.0213 Y23.5155 F60.00
G01 X9.0162 Y23.5188 F60.00
G01 X9.0162 Y23.8701 F60.00
G01 X9.0228 Y23.8669 F60.00
G01 X9.1873 Y23.7683 F60.00
G01 X9.3413 Y23.6544 F60.00
G01 X9.4830 Y23.5257 F60.00
G01 X9.6118 Y23.3835 F60.00
G01 X9.7262 Y23.2294 F60.00
G01 X9.8242 Y23.0655 F60.00
G01 X9.8276 Y23.0583 F60.00
G00 Z2.0000
G00 X9.1562 Y20.6728
G01 F60.00
G01 Z0.0000
G01 F60.00
G01 X9.1562 Y20.7002 F60.00
G01 X9.2308 Y20.7556 F60.00
G01 X9.2417 Y20.7643 F60.00
G01 X9.3683 Y20.8793 F60.00
G01 X9.4833 Y21.0058 F60.00
G01 X9.4920 Y21.0168 F60.00
G01 X9.5475 Y21.0916 F60.00
G01 X9.5749 Y21.0916 F60.00
G01 X9.5035 Y20.9954 F60.00
G01 X9.3838 Y20.8633 F60.00
G01 X9.2524 Y20.7439 F60.00
G01 X9.1562 Y20.6728 F60.00
G00 Z2.0000
G00 X9.0862 Y20.5426
G01 F60.00
G01 Z0.0000
G01 F60.00
G01 X9.0862 Y20.7355 F60.00
G01 X9.1937 Y20.8154 F60.00
G01 X9.3188 Y20.9288 F60.00
G01 X9.4322 Y21.0538 F60.00
G01 X9.5123 Y21.1616 F60.00
G01 X9.7051 Y21.1616 F60.00
G01 X9.6679 Y21.0995 F60.00
G01 X9.5576 Y20.9510 F60.00
G01 X9.4334 Y20.8138 F60.00
G01 X9.2969 Y20.6897 F60.00
G01 X9.1484 Y20.5800 F60.00
G01 X9.0862 Y20.5426 F60.00
G00 Z2.0000
G00 X9.0162 Y20.4199
G01 F60.00
G01 Z0.0000
G01 F60.00
G01 X9.0162 Y20.7711 F60.00
G01 X9.0213 Y20.7745 F60.00
G01 X9.1493 Y20.8695 F60.00
G01 X9.2693 Y20.9783 F60.00
G01 X9.3781 Y21.0982 F60.00
G01 X9.4731 Y21.2263 F60.00
G01 X9.4766 Y21.2316 F60.00
G01 X9.8276 Y21.2316 F60.00
G01 X9.8242 Y21.2244 F60.00
G01 X9.7262 Y21.0605 F60.00
G01 X9.6118 Y20.9065 F60.00
G01 X9.4830 Y20.7643 F60.00
G01 X9.3413 Y20.6356 F60.00
G01 X9.1873 Y20.5217 F60.00
G01 X9.0228 Y20.4231 F60.00
G01 X9.0162 Y20.4199 F60.00
G00 Z2.0000
G00 X18.1159 Y19.9103
G01 F60.00
G01 Z0.0000
G01 F60.00
G01 X18.4677 Y19.9103 F60.00
G01 X18.5166 Y19.8444 F60.00
G01 X18.5924 Y19.7608 F60.00
G01 X18.6760 Y19.6850 F60.00
G01 X18.7424 Y19.6357 F60.00
G01 X18.7424 Y19.2837 F60.00
G01 X18.6332 Y19.3443 F60.00
G01 X18.5001 Y19.4387 F60.00
G01 X18.3788 Y19.5472 F60.00
G01 X18.2702 Y19.6685 F60.00
G01 X18.1760 Y19.8010 F60.00
G01 X18.1159 Y19.9103 F60.00
G00 Z2.0000
G00 X18.2343 Y19.8403
G01 F60.00
G01 Z0.0000
G01 F60.00
G01 X18.4325 Y19.8403 F60.00
G01 X18.4589 Y19.8047 F60.00
G01 X18.4644 Y19.7978 F60.00
G01 X18.5429 Y19.7113 F60.00
G01 X18.6294 Y19.6328 F60.00
G01 X18.6363 Y19.6273 F60.00
G01 X18.6724 Y19.6005 F60.00
G01 X18.6724 Y19.4026 F60.00
G01 X18.5438 Y19.4935 F60.00
G01 X18.4284 Y19.5968 F60.00
G01 X18.3250 Y19.7123 F60.00
G01 X18.2354 Y19.8383 F60.00
G01 X18.2343 Y19.8403 F60.00
G00 Z2.0000
G00 X18.3696 Y19.7703
G01 F60.00
G01 Z0.0000
G01 F60.00
G01 X18.3972 Y19.7703 F60.00
G01 X18.4055 Y19.7593 F60.00
G01 X18.4145 Y19.7486 F60.00
G01 X18.4934 Y19.6618 F60.00
G01 X18.5802 Y19.5829 F60.00
G01 X18.5909 Y19.5739 F60.00
G01 X18.6024 Y19.5652 F60.00
G01 X18.6024 Y19.5377 F60.00
G01 X18.5875 Y19.5483 F60.00
G01 X18.4779 Y19.6463 F60.00
G01 X18.3798 Y19.7560 F60.00
G01 X18.3696 Y19.7703 F60.00
G00 Z2.0000
G00 X18.1157 Y21.2371
G01 F60.00
G01 Z0.0000
G01 F60.00
G01 X18.1760 Y21.3465 F60.00
G01 X18.2703 Y21.4795 F60.00
G01 X18.3788 Y21.6008 F60.00
G01 X18.5001 Y21.7093 F60.00
G01 X18.6331 Y21.8036 F60.00
G01 X18.7424 Y21.8639 F60.00
G01 X18.7424 Y21.5123 F60.00
G01 X18.6760 Y21.4630 F60.00
G01 X18.5924 Y21.3872 F60.00
G01 X18.5166 Y21.3036 F60.00
G01 X18.4673 Y21.2371 F60.00
G01 X18.1157 Y21.2371 F60.00
G00 Z2.0000
G00 X18.2342 Y21.3071
G01 F60.00
G01 Z0.0000
G01 F60.00
G01 X18.2354 Y21.3092 F60.00
G01 X18.3251 Y21.4358 F60.00
G01 X18.4284 Y21.5512 F60.00
G01 X18.5438 Y21.6545 F60.00
G01 X18.6704 Y21.7442 F60.00
G01 X18.6724 Y21.7454 F60.00
G01 X18.6724 Y21.5475 F60.00
G01 X18.6363 Y21.5207 F60.00
G01 X18.6294 Y21.5152 F60.00
G01 X18.5429 Y21.4367 F60.00
G01 X18.4644 Y21.3502 F60.00
G01 X18.4589 Y21.3433 F60.00
G01 X18.4321 Y21.3071 F60.00
G01 X18.2342 Y21.3071 F60.00
G00 Z2.0000
G00 X18.3968 Y21.3771
G01 F60.00
G01 Z0.0000
G01 F60.00
G01 X18.3693 Y21.3771 F60.00
G01 X18.3799 Y21.3921 F60.00
G01 X18.4779 Y21.5017 F60.00
G01 X18.5875 Y21.5997 F60.00
G01 X18.6024 Y21.6103 F60.00
G01 X18.6024 Y21.5828 F60.00
G01 X18.5909 Y21.5741 F60.00
G01 X18.5802 Y21.5651 F60.00
G01 X18.4934 Y21.4862 F60.00
G01 X18.4145 Y21.3994 F60.00
G01 X18.4055 Y21.3887 F60.00
G01 X18.3968 Y21.3771 F60.00
G00 Z2.0000
G00 X19.4056 Y22.4077
G01 F60.00
G01 Z0.0000
G01 F60.00
G01 X19.2430 Y22.4170 F60.00
G01 X19.0824 Y22.4440 F60.00
G01 X18.9258 Y22.4892 F60.00
G01 X18.7756 Y22.5515 F60.00
G01 X18.6331 Y22.6301 F60.00
G01 X18.5001 Y22.7244 F60.00
G01 X18.3788 Y22.8329 F60.00
G01 X18.2703 Y22.9547 F60.00
G01 X18.1759 Y23.0874 F60.00
G01 X18.0969 Y23.2297 F60.00
G01 X18.0350 Y23.3804 F60.00
G01 X17.9898 Y23.5367 F60.00
G01 X17.9623 Y23.6972 F60.00
G01 X17.9535 Y23.8597 F60.00
G01 X17.9624 Y24.0228 F60.00
G01 X17.9898 Y24.1833 F60.00
G01 X18.0350 Y24.3396 F60.00
G01 X18.0969 Y24.4903 F60.00
G01 X18.1759 Y24.6326 F60.00
G01 X18.2703 Y24.7653 F60.00
G01 X18.3788 Y24.8871 F60.00
G01 X18.4753 Y24.9736 F60.00
G01 X18.4812 Y24.9800 F60.00
G01 X18.5081 Y25.0160 F60.00
G01 X18.5129 Y25.0244 F60.00
G01 X18.5160 Y25.0336 F60.00
G01 X18.5249 Y25.0764 F60.00
G01 X18.5257 Y25.0815 F60.00
G01 X18.5259 Y25.0866 F60.00
G01 X18.5259 Y25.9993 F60.00
G01 X18.5250 Y26.0064 F60.00
G01 X18.5174 Y26.0456 F60.00
G01 X18.5150 Y26.0540 F60.00
G01 X18.5105 Y26.0629 F60.00
G01 X18.4866 Y26.0984 F60.00
G01 X18.4819 Y26.1038 F60.00
G01 X18.4755 Y26.1092 F60.00
G01 X18.4405 Y26.1330 F60.00
G01 X18.4338 Y26.1366 F60.00
G01 X18.4291 Y26.1384 F60.00
G01 X18.4243 Y26.1397 F60.00
G01 X18.3839 Y26.1476 F60.00
G01 X18.3768 Y26.1484 F60.00
G01 X17.1168 Y26.1490 F60.00
G01 X17.0277 Y26.1572 F60.00
G01 X17.0055 Y26.1612 F60.00
G01 X16.9194 Y26.1823 F60.00
G01 X16.8128 Y26.2245 F60.00
G01 X16.7933 Y26.2342 F60.00
G01 X16.7164 Y26.2810 F60.00
G01 X16.6979 Y26.2941 F60.00
G01 X16.6290 Y26.3509 F60.00
G01 X15.6804 Y27.2995 F60.00
G01 X15.6236 Y27.3685 F60.00
G01 X15.6107 Y27.3865 F60.00
G01 X15.5533 Y27.4849 F60.00
G01 X15.5118 Y27.5900 F60.00
G01 X15.4906 Y27.6760 F60.00
G01 X15.4867 Y27.6982 F60.00
G01 X15.4785 Y27.7874 F60.00
G01 X15.4779 Y39.0581 F60.00
G01 X15.4773 Y39.0663 F60.00
G01 X15.4717 Y39.0998 F60.00
G01 X15.4703 Y39.1058 F60.00
G01 X15.4281 Y39.2260 F60.00
G01 X15.4072 Y39.3365 F60.00
G01 X15.4029 Y39.4490 F60.00
G01 X15.4153 Y39.5609 F60.00
G01 X15.4443 Y39.6693 F60.00
G01 X15.4895 Y39.7723 F60.00
G01 X15.5491 Y39.8675 F60.00
G01 X15.6261 Y39.9567 F60.00
G01 X25.2421 Y49.5722 F60.00
G01 X25.3111 Y49.6290 F60.00
G01 X25.3291 Y49.6419 F60.00
G01 X25.4275 Y49.6993 F60.00
G01 X25.5326 Y49.7408 F60.00
G01 X25.6186 Y49.7620 F60.00
G01 X25.6408 Y49.7659 F60.00
G01 X25.7300 Y49.7741 F60.00
G01 X69.0882 Y49.7741 F60.00
G01 X69.1774 Y49.7659 F60.00
G01 X69.1996 Y49.7620 F60.00
G01 X69.2856 Y49.7408 F60.00
G01 X69.3907 Y49.6993 F60.00
G01 X69.4891 Y49.6419 F60.00
G01 X69.5071 Y49.6290 F60.00
G01 X69.5761 Y49.5722 F60.00
G01 X72.1528 Y46.9955 F60.00
G01 X72.2096 Y46.9265 F60.00
G01 X72.2225 Y46.9085 F60.00
G01 X72.2799 Y46.8101 F60.00
G01 X72.3214 Y46.7050 F60.00
G01 X72.3426 Y46.6190 F60.00
G01 X72.3465 Y46.5967 F60.00
G01 X72.3547 Y46.5085 F60.00
G01 X72.3552 Y46.4066 F60.00
G01 X72.3559 Y46.3988 F60.00
G01 X72.3612 Y46.3662 F60.00
G01 X72.3630 Y46.3591 F60.00
G01 X72.3659 Y46.3523 F60.00
G01 X72.3818 Y46.3217 F60.00
G01 X72.3852 Y46.3166 F60.00
G01 X72.3892 Y46.3120 F60.00
G01 X72.4158 Y46.2862 F60.00
G01 X72.5081 Y46.2204 F60.00
G01 X72.6294 Y46.1118 F60.00
G01 X72.7380 Y45.9905 F60.00
G01 X72.8322 Y45.8579 F60.00
G01 X72.9113 Y45.7150 F60.00
G01 X72.9736 Y45.5648 F60.00
G01 X73.0183 Y45.4081 F60.00
G01 X73.0459 Y45.2475 F60.00
G01 X73.0552 Y45.0850 F60.00
G01 X73.0459 Y44.9225 F60.00
G01 X73.0183 Y44.7618 F60.00
G01 X72.9736 Y44.6052 F60.00
G01 X72.9113 Y44.4550 F60.00
G01 X72.8322 Y44.3121 F60.00
G01 X72.7380 Y44.1795 F60.00
G01 X72.6294 Y44.0582 F60.00
G01 X72.5081 Y43.9496 F60.00
G01 X72.3755 Y43.8553 F60.00
G01 X72.2326 Y43.7763 F60.00
G01 X72.0824 Y43.7139 F60.00
G01 X71.9257 Y43.6693 F60.00
G01 X71.7651 Y43.6417 F60.00
G01 X71.6026 Y43.6324 F60.00
G01 X71.4401 Y43.6417 F60.00
G01 X71.2794 Y43.6693 F60.00
G01 X71.1228 Y43.7139 F60.00
G01 X70.9726 Y43.7763 F60.00
G01 X70.8297 Y43.8553 F60.00
G01 X70.6971 Y43.9496 F60.00
G01 X70.5758 Y44.0582 F60.00
G01 X70.4672 Y44.1795 F60.00
G01 X70.3729 Y44.3121 F60.00
G01 X70.2939 Y44.4550 F60.00
G01 X70.2315 Y44.6052 F60.00
G01 X70.1869 Y44.7618 F60.00
G01 X70.1593 Y44.9225 F60.00
G01 X70.1500 Y45.0850 F60.00
G01 X70.1593 Y45.2475 F60.00
G01 X70.1869 Y45.4081 F60.00
G01 X70.2315 Y45.5648 F60.00
G01 X70.2939 Y45.7150 F60.00
G01 X70.3729 Y45.8579 F60.00
G01 X70.4672 Y45.9905 F60.00
G01 X70.5759 Y46.1119 F60.00
G01 X70.6353 Y46.1660 F60.00
G01 X70.6656 Y46.2070 F60.00
G01 X70.6689 Y46.2137 F60.00
G01 X70.6709 Y46.2195 F60.00
G01 X70.6812 Y46.2615 F60.00
G01 X70.6823 Y46.2699 F60.00
G01 X70.6818 Y46.2796 F60.00
G01 X70.6745 Y46.3214 F60.00
G01 X70.6730 Y46.3274 F60.00
G01 X70.6704 Y46.3343 F60.00
G01 X70.6667 Y46.3407 F60.00
G01 X70.6438 Y46.3747 F60.00
G01 X70.6377 Y46.3822 F60.00
G01 X68.7952 Y48.2252 F60.00
G01 X68.7915 Y48.2286 F60.00
G01 X68.7874 Y48.2316 F60.00
G01 X68.7534 Y48.2541 F60.00
G01 X68.7469 Y48.2575 F60.00
G01 X68.7377 Y48.2605 F60.00
G01 X68.6931 Y48.2691 F60.00
G01 X55.7408 Y48.2694 F60.00
G01 X55.7324 Y48.2687 F60.00
G01 X55.6873 Y48.2596 F60.00
G01 X55.6814 Y48.2575 F60.00
G01 X55.6759 Y48.2546 F60.00
G01 X55.6403 Y48.2307 F60.00
G01 X55.6339 Y48.2253 F60.00
G01 X55.6284 Y48.2189 F60.00
G01 X55.6047 Y48.1839 F60.00
G01 X55.6022 Y48.1795 F60.00
G01 X55.6002 Y48.1749 F60.00
G01 X55.5978 Y48.1666 F60.00
G01 X55.5901 Y48.1279 F60.00
G01 X55.5893 Y48.1209 F60.00
G01 X55.5806 Y46.5757 F60.00
G01 X55.5810 Y46.5688 F60.00
G01 X55.5905 Y46.5225 F60.00
G01 X55.5935 Y46.5135 F60.00
G01 X55.5982 Y46.5052 F60.00
G01 X55.6251 Y46.4686 F60.00
G01 X55.6312 Y46.4621 F60.00
G01 X55.7384 Y46.3658 F60.00
G01 X55.8470 Y46.2445 F60.00
G01 X55.9412 Y46.1119 F60.00
G01 X56.0203 Y45.9690 F60.00
G01 X56.0826 Y45.8188 F60.00
G01 X56.1273 Y45.6621 F60.00
G01 X56.1549 Y45.5015 F60.00
G01 X56.1642 Y45.3390 F60.00
G01 X56.1549 Y45.1765 F60.00
G01 X56.1273 Y45.0158 F60.00
G01 X56.0826 Y44.8592 F60.00
G01 X56.0203 Y44.7090 F60.00
G01 X55.9412 Y44.5661 F60.00
G01 X55.8470 Y44.4335 F60.00
G01 X55.7384 Y44.3122 F60.00
G01 X55.6171 Y44.2036 F60.00
G01 X55.4845 Y44.1093 F60.00
G01 X55.3416 Y44.0303 F60.00
G01 X55.1914 Y43.9679 F60.00
G01 X55.0347 Y43.9233 F60.00
G01 X54.8741 Y43.8957 F60.00
G01 X54.7116 Y43.8864 F60.00
G01 X54.5491 Y43.8957 F60.00
G01 X54.3884 Y43.9233 F60.00
G01 X54.2318 Y43.9679 F60.00
G01 X54.0816 Y44.0303 F60.00
G01 X53.9387 Y44.1093 F60.00
G01 X53.8061 Y44.2036 F60.00
G01 X53.6848 Y44.3122 F60.00
G01 X53.5762 Y44.4335 F60.00
G01 X53.4819 Y44.5661 F60.00
G01 X53.4029 Y44.7090 F60.00
G01 X53.3405 Y44.8592 F60.00
G01 X53.2959 Y45.0158 F60.00
G01 X53.2683 Y45.1765 F60.00
G01 X53.2590 Y45.3390 F60.00
G01 X53.2683 Y45.5015 F60.00
G01 X53.2959 Y45.6621 F60.00
G01 X53.3405 Y45.8188 F60.00
G01 X53.4029 Y45.9690 F60.00
G01 X53.4819 Y46.1119 F60.00
G01 X53.5762 Y46.2445 F60.00
G01 X53.6848 Y46.3658 F60.00
G01 X53.8061 Y46.4744 F60.00
G01 X53.9386 Y46.5686 F60.00
G01 X54.0021 Y46.6037 F60.00
G01 X54.0334 Y46.6295 F60.00
G01 X54.0394 Y46.6354 F60.00
G01 X54.0443 Y46.6422 F60.00
G01 X54.0638 Y46.6749 F60.00
G01 X54.0664 Y46.6806 F60.00
G01 X54.0683 Y46.6867 F60.00
G01 X54.0757 Y46.7255 F60.00
G01 X54.0763 Y46.7332 F60.00
G01 X54.0839 Y48.1194 F60.00
G01 X54.0830 Y48.1268 F60.00
G01 X54.0754 Y48.1659 F60.00
G01 X54.0730 Y48.1742 F60.00
G01 X54.0687 Y48.1829 F60.00
G01 X54.0455 Y48.2180 F60.00
G01 X54.0400 Y48.2245 F60.00
G01 X54.0325 Y48.2308 F60.00
G01 X53.9974 Y48.2545 F60.00
G01 X53.9918 Y48.2574 F60.00
G01 X53.9847 Y48.2600 F60.00
G01 X53.9407 Y48.2687 F60.00
G01 X53.9323 Y48.2694 F60.00
G01 X38.9776 Y48.2693 F60.00
G01 X38.9705 Y48.2687 F60.00
G01 X38.9302 Y48.2608 F60.00
G01 X38.9208 Y48.2580 F60.00
G01 X38.9132 Y48.2541 F60.00
G01 X38.8791 Y48.2316 F60.00
G01 X38.8751 Y48.2286 F60.00
G01 X38.8713 Y48.2252 F60.00
G01 X38.8680 Y48.2215 F60.00
G01 X38.8650 Y48.2175 F60.00
G01 X38.8425 Y48.1834 F60.00
G01 X38.8391 Y48.1769 F60.00
G01 X38.8360 Y48.1676 F60.00
G01 X38.8275 Y48.1226 F60.00
G01 X38.8272 Y46.7883 F60.00
G01 X38.8277 Y46.7818 F60.00
G01 X38.8329 Y46.7485 F60.00
G01 X38.8350 Y46.7401 F60.00
G01 X38.8379 Y46.7333 F60.00
G01 X38.8538 Y46.7027 F60.00
G01 X38.8580 Y46.6967 F60.00
G01 X38.8621 Y46.6921 F60.00
G01 X38.8850 Y46.6698 F60.00
G01 X38.8899 Y46.6655 F60.00
G01 X38.9801 Y46.6014 F60.00
G01 X39.1014 Y46.4928 F60.00
G01 X39.2100 Y46.3715 F60.00
G01 X39.3042 Y46.2389 F60.00
G01 X39.3833 Y46.0960 F60.00
G01 X39.4456 Y45.9458 F60.00
G01 X39.4903 Y45.7891 F60.00
G01 X39.5179 Y45.6285 F60.00
G01 X39.5272 Y45.4660 F60.00
G01 X39.5179 Y45.3035 F60.00
G01 X39.4903 Y45.1428 F60.00
G01 X39.4456 Y44.9862 F60.00
G01 X39.3833 Y44.8360 F60.00
G01 X39.3042 Y44.6931 F60.00
G01 X39.2100 Y44.5605 F60.00
G01 X39.1014 Y44.4392 F60.00
G01 X38.9801 Y44.3306 F60.00
G01 X38.8475 Y44.2363 F60.00
G01 X38.7046 Y44.1573 F60.00
G01 X38.5544 Y44.0949 F60.00
G01 X38.3977 Y44.0503 F60.00
G01 X38.2371 Y44.0227 F60.00
G01 X38.0746 Y44.0134 F60.00
G01 X37.9121 Y44.0227 F60.00
G01 X37.7514 Y44.0503 F60.00
G01 X37.5948 Y44.0949 F60.00
G01 X37.4446 Y44.1573 F60.00
G01 X37.3017 Y44.2363 F60.00
G01 X37.1691 Y44.3306 F60.00
G01 X37.0478 Y44.4392 F60.00
G01 X36.9392 Y44.5605 F60.00
G01 X36.8449 Y44.6931 F60.00
G01 X36.7659 Y44.8360 F60.00
G01 X36.7035 Y44.9862 F60.00
G01 X36.6589 Y45.1428 F60.00
G01 X36.6313 Y45.3035 F60.00
G01 X36.6220 Y45.4660 F60.00
G01 X36.6313 Y45.6285 F60.00
G01 X36.6589 Y45.7891 F60.00
G01 X36.7035 Y45.9458 F60.00
G01 X36.7659 Y46.0960 F60.00
G01 X36.8449 Y46.2389 F60.00
G01 X36.9392 Y46.3715 F60.00
G01 X37.0478 Y46.4928 F60.00
G01 X37.1691 Y46.6014 F60.00
G01 X37.2593 Y46.6655 F60.00
G01 X37.2642 Y46.6698 F60.00
G01 X37.2871 Y46.6921 F60.00
G01 X37.2927 Y46.6986 F60.00
G01 X37.2965 Y46.7049 F60.00
G01 X37.3124 Y46.7355 F60.00
G01 X37.3142 Y46.7401 F60.00
G01 X37.3158 Y46.7461 F60.00
G01 X37.3213 Y46.7805 F60.00
G01 X37.3219 Y46.7883 F60.00
G01 X37.3219 Y48.1202 F60.00
G01 X37.3210 Y48.1273 F60.00
G01 X37.3134 Y48.1664 F60.00
G01 X37.3111 Y48.1747 F60.00
G01 X37.3067 Y48.1834 F60.00
G01 X37.2835 Y48.2185 F60.00
G01 X37.2778 Y48.2252 F60.00
G01 X37.2711 Y48.2309 F60.00
G01 X37.2360 Y48.2541 F60.00
G01 X37.2318 Y48.2565 F60.00
G01 X37.2261 Y48.2589 F60.00
G01 X37.2190 Y48.2608 F60.00
G01 X37.1799 Y48.2684 F60.00
G01 X37.1703 Y48.2694 F60.00
G01 X26.1300 Y48.2694 F60.00
G01 X26.1203 Y48.2684 F60.00
G01 X26.0805 Y48.2605 F60.00
G01 X26.0735 Y48.2584 F60.00
G01 X26.0691 Y48.2565 F60.00
G01 X26.0638 Y48.2534 F60.00
G01 X26.0297 Y48.2309 F60.00
G01 X26.0230 Y48.2252 F60.00
G01 X17.0273 Y39.2296 F60.00
G01 X17.0217 Y39.2229 F60.00
G01 X16.9985 Y39.1878 F60.00
G01 X16.9946 Y39.1802 F60.00
G01 X16.9920 Y39.1721 F60.00
G01 X16.9840 Y39.1311 F60.00
G01 X16.9832 Y39.1226 F60.00
G01 X16.9832 Y28.1874 F60.00
G01 X16.9840 Y28.1789 F60.00
G01 X16.9923 Y28.1367 F60.00
G01 X16.9951 Y28.1287 F60.00
G01 X16.9985 Y28.1222 F60.00
G01 X17.0217 Y28.0871 F60.00
G01 X17.0265 Y28.0813 F60.00
G01 X17.4099 Y27.6979 F60.00
G01 X17.4166 Y27.6922 F60.00
G01 X17.4517 Y27.6690 F60.00
G01 X17.4581 Y27.6656 F60.00
G01 X17.4662 Y27.6629 F60.00
G01 X17.5084 Y27.6545 F60.00
G01 X17.5169 Y27.6538 F60.00
G01 X18.3780 Y27.6539 F60.00
G01 X18.3839 Y27.6547 F60.00
G01 X18.4230 Y27.6623 F60.00
G01 X18.4313 Y27.6647 F60.00
G01 X18.4400 Y27.6690 F60.00
G01 X18.4741 Y27.6915 F60.00
G01 X18.4809 Y27.6970 F60.00
G01 X18.4867 Y27.7036 F60.00
G01 X18.5100 Y27.7387 F60.00
G01 X18.5131 Y27.7440 F60.00
G01 X18.5155 Y27.7496 F60.00
G01 X18.5172 Y27.7555 F60.00
G01 X18.5252 Y27.7970 F60.00
G01 X18.5259 Y27.8054 F60.00
G01 X18.5259 Y28.3957 F60.00
G01 X18.5255 Y28.4022 F60.00
G01 X18.5203 Y28.4355 F60.00
G01 X18.5182 Y28.4439 F60.00
G01 X18.5158 Y28.4496 F60.00
G01 X18.5000 Y28.4802 F60.00
G01 X18.4960 Y28.4864 F60.00
G01 X18.4911 Y28.4919 F60.00
G01 X18.4682 Y28.5142 F60.00
G01 X18.4633 Y28.5185 F60.00
G01 X18.3731 Y28.5826 F60.00
G01 X18.2518 Y28.6912 F60.00
G01 X18.1432 Y28.8125 F60.00
G01 X18.0489 Y28.9451 F60.00
G01 X17.9699 Y29.0880 F60.00
G01 X17.9075 Y29.2382 F60.00
G01 X17.8629 Y29.3948 F60.00
G01 X17.8353 Y29.5555 F60.00
G01 X17.8260 Y29.7180 F60.00
G01 X17.8353 Y29.8805 F60.00
G01 X17.8629 Y30.0411 F60.00
G01 X17.9075 Y30.1978 F60.00
G01 X17.9699 Y30.3480 F60.00
G01 X18.0489 Y30.4909 F60.00
G01 X18.1432 Y30.6235 F60.00
G01 X18.2518 Y30.7448 F60.00
G01 X18.3731 Y30.8534 F60.00
G01 X18.5057 Y30.9476 F60.00
G01 X18.6486 Y31.0267 F60.00
G01 X18.7988 Y31.0890 F60.00
G01 X18.9554 Y31.1337 F60.00
G01 X19.1161 Y31.1613 F60.00
G01 X19.2786 Y31.1706 F60.00
G01 X19.4411 Y31.1613 F60.00
G01 X19.6017 Y31.1337 F60.00
G01 X19.7584 Y31.0890 F60.00
G01 X19.9086 Y31.0267 F60.00
G01 X20.0515 Y30.9476 F60.00
G01 X20.1841 Y30.8534 F60.00
G01 X20.3054 Y30.7448 F60.00
G01 X20.4140 Y30.6235 F60.00
G01 X20.5082 Y30.4909 F60.00
G01 X20.5873 Y30.3480 F60.00
G01 X20.6496 Y30.1978 F60.00
G01 X20.6943 Y30.0411 F60.00
G01 X20.7219 Y29.8805 F60.00
G01 X20.7312 Y29.7180 F60.00
G01 X20.7219 Y29.5555 F60.00
G01 X20.6943 Y29.3948 F60.00
G01 X20.6496 Y29.2382 F60.00
G01 X20.5873 Y29.0880 F60.00
G01 X20.5082 Y28.9451 F60.00
G01 X20.4140 Y28.8125 F60.00
G01 X20.3054 Y28.6912 F60.00
G01 X20.1841 Y28.5826 F60.00
G01 X20.0929 Y28.5177 F60.00
G01 X20.0644 Y28.4901 F60.00
G01 X20.0605 Y28.4854 F60.00
G01 X20.0572 Y28.4802 F60.00
G01 X20.0419 Y28.4507 F60.00
G01 X20.0394 Y28.4450 F60.00
G01 X20.0371 Y28.4367 F60.00
G01 X20.0318 Y28.4035 F60.00
G01 X20.0312 Y28.3957 F60.00
G01 X20.0314 Y25.2566 F60.00
G01 X20.0383 Y25.2155 F60.00
G01 X20.0411 Y25.2063 F60.00
G01 X20.0443 Y25.1998 F60.00
G01 X20.0632 Y25.1678 F60.00
G01 X20.0669 Y25.1627 F60.00
G01 X20.0711 Y25.1581 F60.00
G01 X20.1056 Y25.1299 F60.00
G01 X20.1786 Y25.0898 F60.00
G01 X20.3111 Y24.9956 F60.00
G01 X20.4324 Y24.8871 F60.00
G01 X20.5410 Y24.7652 F60.00
G01 X20.6051 Y24.6755 F60.00
G01 X20.6090 Y24.6710 F60.00
G01 X20.6322 Y24.6468 F60.00
G01 X20.6386 Y24.6414 F60.00
G01 X20.6448 Y24.6376 F60.00
G01 X20.6759 Y24.6219 F60.00
G01 X20.6815 Y24.6197 F60.00
G01 X20.6873 Y24.6183 F60.00
G01 X20.7211 Y24.6128 F60.00
G01 X20.7279 Y24.6124 F60.00
G01 X27.3969 Y24.6124 F60.00
G01 X27.4033 Y24.6128 F60.00
G01 X27.4475 Y24.6218 F60.00
G01 X27.4559 Y24.6246 F60.00
G01 X27.4636 Y24.6288 F60.00
G01 X27.4977 Y24.6514 F60.00
G01 X27.5035 Y24.6561 F60.00
G01 X28.4365 Y25.5891 F60.00
G01 X28.4412 Y25.5949 F60.00
G01 X28.4638 Y25.6289 F60.00
G01 X28.4664 Y25.6333 F60.00
G01 X28.4685 Y25.6379 F60.00
G01 X28.4708 Y25.6451 F60.00
G01 X28.4792 Y25.6855 F60.00
G01 X28.4799 Y25.6905 F60.00
G01 X28.4802 Y25.6957 F60.00
G01 X28.4802 Y30.4576 F60.00
G01 X28.4799 Y30.4629 F60.00
G01 X28.4743 Y30.4987 F60.00
G01 X28.4720 Y30.5070 F60.00
G01 X28.4695 Y30.5126 F60.00
G01 X28.4542 Y30.5422 F60.00
G01 X28.4508 Y30.5476 F60.00
G01 X28.4467 Y30.5524 F60.00
G01 X28.4180 Y30.5797 F60.00
G01 X28.3274 Y30.6446 F60.00
G01 X28.2055 Y30.7532 F60.00
G01 X28.0970 Y30.8745 F60.00
G01 X28.0027 Y31.0070 F60.00
G01 X27.9242 Y31.1499 F60.00
G01 X27.8618 Y31.3002 F60.00
G01 X27.8166 Y31.4568 F60.00
G01 X27.7896 Y31.6174 F60.00
G01 X27.7803 Y31.7800 F60.00
G01 X27.7896 Y31.9425 F60.00
G01 X27.8166 Y32.1031 F60.00
G01 X27.8618 Y32.2597 F60.00
G01 X27.9242 Y32.4100 F60.00
G01 X28.0027 Y32.5529 F60.00
G01 X28.0970 Y32.6855 F60.00
G01 X28.2055 Y32.8068 F60.00
G01 X28.3273 Y32.9153 F60.00
G01 X28.4600 Y33.0096 F60.00
G01 X28.6023 Y33.0887 F60.00
G01 X28.7530 Y33.1510 F60.00
G01 X28.9092 Y33.1957 F60.00
G01 X29.0699 Y33.2232 F60.00
G01 X29.2324 Y33.2325 F60.00
G01 X29.3953 Y33.2232 F60.00
G01 X29.5560 Y33.1957 F60.00
G01 X29.7122 Y33.1510 F60.00
G01 X29.8629 Y33.0887 F60.00
G01 X30.0052 Y33.0096 F60.00
G01 X30.1379 Y32.9153 F60.00
G01 X30.2597 Y32.8068 F60.00
G01 X30.3679 Y32.6858 F60.00
G01 X30.3790 Y32.6697 F60.00
G01 X30.3827 Y32.6651 F60.00
G01 X30.4149 Y32.6346 F60.00
G01 X30.4206 Y32.6303 F60.00
G01 X30.4269 Y32.6269 F60.00
G01 X30.4652 Y32.6118 F60.00
G01 X30.4736 Y32.6093 F60.00
G01 X30.4786 Y32.6086 F60.00
G01 X30.4836 Y32.6083 F60.00
G01 X30.5229 Y32.6083 F60.00
G01 X30.5279 Y32.6087 F60.00
G01 X30.5328 Y32.6096 F60.00
G01 X30.5400 Y32.6118 F60.00
G01 X30.5772 Y32.6265 F60.00
G01 X30.5825 Y32.6291 F60.00
G01 X30.5875 Y32.6324 F60.00
G01 X30.5921 Y32.6362 F60.00
G01 X30.6225 Y32.6651 F60.00
G01 X30.6262 Y32.6697 F60.00
G01 X30.6373 Y32.6858 F60.00
G01 X30.7455 Y32.8068 F60.00
G01 X30.8673 Y32.9153 F60.00
G01 X31.0000 Y33.0096 F60.00
G01 X31.1423 Y33.0887 F60.00
G01 X31.2930 Y33.1510 F60.00
G01 X31.4492 Y33.1957 F60.00
G01 X31.6099 Y33.2232 F60.00
G01 X31.7724 Y33.2325 F60.00
G01 X31.9353 Y33.2232 F60.00
G01 X32.0960 Y33.1957 F60.00
G01 X32.2522 Y33.1510 F60.00
G01 X32.4029 Y33.0887 F60.00
G01 X32.5452 Y33.0096 F60.00
G01 X32.6779 Y32.9153 F60.00
G01 X32.7997 Y32.8068 F60.00
G01 X32.9079 Y32.6858 F60.00
G01 X32.9190 Y32.6697 F60.00
G01 X32.9227 Y32.6651 F60.00
G01 X32.9540 Y32.6354 F60.00
G01 X32.9606 Y32.6303 F60.00
G01 X32.9669 Y32.6269 F60.00
G01 X33.0052 Y32.6118 F60.00
G01 X33.0136 Y32.6093 F60.00
G01 X33.0186 Y32.6086 F60.00
G01 X33.0236 Y32.6083 F60.00
G01 X33.0629 Y32.6083 F60.00
G01 X33.0679 Y32.6087 F60.00
G01 X33.0728 Y32.6096 F60.00
G01 X33.0800 Y32.6118 F60.00
G01 X33.1172 Y32.6265 F60.00
G01 X33.1225 Y32.6291 F60.00
G01 X33.1275 Y32.6324 F60.00
G01 X33.1321 Y32.6362 F60.00
G01 X33.1625 Y32.6651 F60.00
G01 X33.1662 Y32.6697 F60.00
G01 X33.1773 Y32.6858 F60.00
G01 X33.2855 Y32.8068 F60.00
G01 X33.4073 Y32.9153 F60.00
G01 X33.5400 Y33.0096 F60.00
G01 X33.6823 Y33.0887 F60.00
G01 X33.8330 Y33.1510 F60.00
G01 X33.9892 Y33.1957 F60.00
G01 X34.1499 Y33.2232 F60.00
G01 X34.3124 Y33.2325 F60.00
G01 X34.4753 Y33.2232 F60.00
G01 X34.6360 Y33.1957 F60.00
G01 X34.7922 Y33.1510 F60.00
G01 X34.9429 Y33.0887 F60.00
G01 X35.0852 Y33.0096 F60.00
G01 X35.2179 Y32.9153 F60.00
G01 X35.3397 Y32.8068 F60.00
G01 X35.4479 Y32.6858 F60.00
G01 X35.4590 Y32.6697 F60.00
G01 X35.4627 Y32.6651 F60.00
G01 X35.4940 Y32.6354 F60.00
G01 X35.5006 Y32.6303 F60.00
G01 X35.5069 Y32.6269 F60.00
G01 X35.5452 Y32.6118 F60.00
G01 X35.5536 Y32.6093 F60.00
G01 X35.5586 Y32.6086 F60.00
G01 X35.5636 Y32.6083 F60.00
G01 X35.6029 Y32.6083 F60.00
G01 X35.6079 Y32.6087 F60.00
G01 X35.6128 Y32.6096 F60.00
G01 X35.6200 Y32.6118 F60.00
G01 X35.6572 Y32.6265 F60.00
G01 X35.6625 Y32.6291 F60.00
G01 X35.6675 Y32.6324 F60.00
G01 X35.6721 Y32.6362 F60.00
G01 X35.7025 Y32.6651 F60.00
G01 X35.7062 Y32.6697 F60.00
G01 X35.7173 Y32.6858 F60.00
G01 X35.8255 Y32.8068 F60.00
G01 X35.9473 Y32.9153 F60.00
G01 X36.0800 Y33.0096 F60.00
G01 X36.2223 Y33.0887 F60.00
G01 X36.3730 Y33.1510 F60.00
G01 X36.5292 Y33.1957 F60.00
G01 X36.6899 Y33.2232 F60.00
G01 X36.8524 Y33.2325 F60.00
G01 X37.0153 Y33.2232 F60.00
G01 X37.1760 Y33.1957 F60.00
G01 X37.3322 Y33.1510 F60.00
G01 X37.4829 Y33.0887 F60.00
G01 X37.6252 Y33.0096 F60.00
G01 X37.7579 Y32.9153 F60.00
G01 X37.8797 Y32.8068 F60.00
G01 X37.9879 Y32.6858 F60.00
G01 X37.9990 Y32.6697 F60.00
G01 X38.0027 Y32.6651 F60.00
G01 X38.0340 Y32.6354 F60.00
G01 X38.0406 Y32.6303 F60.00
G01 X38.0491 Y32.6260 F60.00
G01 X38.0876 Y32.6109 F60.00
G01 X38.0948 Y32.6091 F60.00
G01 X38.1023 Y32.6083 F60.00
G01 X38.1429 Y32.6083 F60.00
G01 X38.1479 Y32.6087 F60.00
G01 X38.1528 Y32.6096 F60.00
G01 X38.1600 Y32.6118 F60.00
G01 X38.1972 Y32.6265 F60.00
G01 X38.2025 Y32.6291 F60.00
G01 X38.2075 Y32.6324 F60.00
G01 X38.2121 Y32.6362 F60.00
G01 X38.2425 Y32.6651 F60.00
G01 X38.2462 Y32.6697 F60.00
G01 X38.2573 Y32.6858 F60.00
G01 X38.3655 Y32.8068 F60.00
G01 X38.4873 Y32.9153 F60.00
G01 X38.6200 Y33.0096 F60.00
G01 X38.7623 Y33.0887 F60.00
G01 X38.9130 Y33.1510 F60.00
G01 X39.0692 Y33.1957 F60.00
G01 X39.2299 Y33.2232 F60.00
G01 X39.3924 Y33.2325 F60.00
G01 X39.5553 Y33.2232 F60.00
G01 X39.7160 Y33.1957 F60.00
G01 X39.8722 Y33.1510 F60.00
G01 X40.0229 Y33.0887 F60.00
G01 X40.1652 Y33.0096 F60.00
G01 X40.2979 Y32.9153 F60.00
G01 X40.4197 Y32.8068 F60.00
G01 X40.5279 Y32.6858 F60.00
G01 X40.5390 Y32.6697 F60.00
G01 X40.5427 Y32.6651 F60.00
G01 X40.5740 Y32.6354 F60.00
G01 X40.5817 Y32.6297 F60.00
G01 X40.5891 Y32.6260 F60.00
G01 X40.6276 Y32.6109 F60.00
G01 X40.6348 Y32.6091 F60.00
G01 X40.6423 Y32.6083 F60.00
G01 X40.6829 Y32.6083 F60.00
G01 X40.6879 Y32.6087 F60.00
G01 X40.6928 Y32.6096 F60.00
G01 X40.7000 Y32.6118 F60.00
G01 X40.7372 Y32.6265 F60.00
G01 X40.7425 Y32.6291 F60.00
G01 X40.7475 Y32.6324 F60.00
G01 X40.7521 Y32.6362 F60.00
G01 X40.7825 Y32.6651 F60.00
G01 X40.7862 Y32.6697 F60.00
G01 X40.7973 Y32.6858 F60.00
G01 X40.9055 Y32.8068 F60.00
G01 X41.0273 Y32.9153 F60.00
G01 X41.1600 Y33.0096 F60.00
G01 X41.3023 Y33.0887 F60.00
G01 X41.4530 Y33.1510 F60.00
G01 X41.6092 Y33.1957 F60.00
G01 X41.7699 Y33.2232 F60.00
G01 X41.9324 Y33.2325 F60.00
G01 X42.0953 Y33.2232 F60.00
G01 X42.2560 Y33.1957 F60.00
G01 X42.4122 Y33.1510 F60.00
G01 X42.5629 Y33.0887 F60.00
G01 X42.7052 Y33.0096 F60.00
G01 X42.8379 Y32.9153 F60.00
G01 X42.9597 Y32.8068 F60.00
G01 X43.0679 Y32.6858 F60.00
G01 X43.0790 Y32.6697 F60.00
G01 X43.0827 Y32.6651 F60.00
G01 X43.1140 Y32.6354 F60.00
G01 X43.1206 Y32.6303 F60.00
G01 X43.1291 Y32.6260 F60.00
G01 X43.1676 Y32.6109 F60.00
G01 X43.1748 Y32.6091 F60.00
G01 X43.1823 Y32.6083 F60.00
G01 X43.2229 Y32.6083 F60.00
G01 X43.2279 Y32.6087 F60.00
G01 X43.2328 Y32.6096 F60.00
G01 X43.2400 Y32.6118 F60.00
G01 X43.2772 Y32.6265 F60.00
G01 X43.2825 Y32.6291 F60.00
G01 X43.2875 Y32.6324 F60.00
G01 X43.2921 Y32.6362 F60.00
G01 X43.3225 Y32.6651 F60.00
G01 X43.3262 Y32.6697 F60.00
G01 X43.3373 Y32.6858 F60.00
G01 X43.4455 Y32.8068 F60.00
G01 X43.5673 Y32.9153 F60.00
G01 X43.7000 Y33.0096 F60.00
G01 X43.8423 Y33.0887 F60.00
G01 X43.9930 Y33.1510 F60.00
G01 X44.1492 Y33.1957 F60.00
G01 X44.3099 Y33.2232 F60.00
G01 X44.4724 Y33.2325 F60.00
G01 X44.6353 Y33.2232 F60.00
G01 X44.7960 Y33.1957 F60.00
G01 X44.9522 Y33.1510 F60.00
G01 X45.1029 Y33.0887 F60.00
G01 X45.2452 Y33.0096 F60.00
G01 X45.3779 Y32.9153 F60.00
G01 X45.4997 Y32.8068 F60.00
G01 X45.6079 Y32.6858 F60.00
G01 X45.6190 Y32.6697 F60.00
G01 X45.6227 Y32.6651 F60.00
G01 X45.6540 Y32.6354 F60.00
G01 X45.6606 Y32.6303 F60.00
G01 X45.6691 Y32.6260 F60.00
G01 X45.7076 Y32.6109 F60.00
G01 X45.7148 Y32.6091 F60.00
G01 X45.7223 Y32.6083 F60.00
G01 X45.7629 Y32.6083 F60.00
G01 X45.7679 Y32.6087 F60.00
G01 X45.7728 Y32.6096 F60.00
G01 X45.7800 Y32.6118 F60.00
G01 X45.8172 Y32.6265 F60.00
G01 X45.8225 Y32.6291 F60.00
G01 X45.8275 Y32.6324 F60.00
G01 X45.8321 Y32.6362 F60.00
G01 X45.8625 Y32.6651 F60.00
G01 X45.8662 Y32.6697 F60.00
G01 X45.8773 Y32.6858 F60.00
G01 X45.9855 Y32.8068 F60.00
G01 X46.1073 Y32.9153 F60.00
G01 X46.2400 Y33.0096 F60.00
G01 X46.3823 Y33.0887 F60.00
G01 X46.5330 Y33.1510 F60.00
G01 X46.6892 Y33.1957 F60.00
G01 X46.8499 Y33.2232 F60.00
G01 X47.0128 Y33.2325 F60.00
G01 X47.1753 Y33.2232 F60.00
G01 X47.3360 Y33.1957 F60.00
G01 X47.4922 Y33.1510 F60.00
G01 X47.6429 Y33.0887 F60.00
G01 X47.7852 Y33.0096 F60.00
G01 X47.9179 Y32.9153 F60.00
G01 X48.0397 Y32.8068 F60.00
G01 X48.1479 Y32.6858 F60.00
G01 X48.1590 Y32.6697 F60.00
G01 X48.1627 Y32.6651 F60.00
G01 X48.1940 Y32.6354 F60.00
G01 X48.2006 Y32.6303 F60.00
G01 X48.2080 Y32.6265 F60.00
G01 X48.2476 Y32.6109 F60.00
G01 X48.2536 Y32.6093 F60.00
G01 X48.2598 Y32.6084 F60.00
G01 X48.3029 Y32.6083 F60.00
G01 X48.3079 Y32.6087 F60.00
G01 X48.3128 Y32.6096 F60.00
G01 X48.3200 Y32.6118 F60.00
G01 X48.3572 Y32.6265 F60.00
G01 X48.3646 Y32.6303 F60.00
G01 X48.3703 Y32.6346 F60.00
G01 X48.4025 Y32.6651 F60.00
G01 X48.4062 Y32.6697 F60.00
G01 X48.4173 Y32.6858 F60.00
G01 X48.5255 Y32.8068 F60.00
G01 X48.6473 Y32.9153 F60.00
G01 X48.7365 Y32.9787 F60.00
G01 X48.7429 Y32.9841 F60.00
G01 X48.7666 Y33.0078 F60.00
G01 X48.7718 Y33.0143 F60.00
G01 X48.7748 Y33.0194 F60.00
G01 X48.7901 Y33.0489 F60.00
G01 X48.7931 Y33.0569 F60.00
G01 X48.7945 Y33.0628 F60.00
G01 X48.7996 Y33.0943 F60.00
G01 X48.8002 Y33.1011 F60.00
G01 X48.8002 Y33.4888 F60.00
G01 X48.7993 Y33.4960 F60.00
G01 X48.7916 Y33.5346 F60.00
G01 X48.7892 Y33.5430 F60.00
G01 X48.7847 Y33.5519 F60.00
G01 X48.7610 Y33.5870 F60.00
G01 X48.7556 Y33.5933 F60.00
G01 X47.7123 Y34.6371 F60.00
G01 X47.7065 Y34.6419 F60.00
G01 X47.6724 Y34.6644 F60.00
G01 X47.6638 Y34.6690 F60.00
G01 X47.6557 Y34.6715 F60.00
G01 X47.6111 Y34.6801 F60.00
G01 X24.3330 Y34.6809 F60.00
G01 X24.2438 Y34.6891 F60.00
G01 X24.2216 Y34.6930 F60.00
G01 X24.1356 Y34.7142 F60.00
G01 X24.0305 Y34.7557 F60.00
G01 X23.9321 Y34.8131 F60.00
G01 X23.9141 Y34.8260 F60.00
G01 X23.8451 Y34.8828 F60.00
G01 X22.4515 Y36.2765 F60.00
G01 X22.3942 Y36.3454 F60.00
G01 X22.3812 Y36.3636 F60.00
G01 X22.3370 Y36.4375 F60.00
G01 X22.3076 Y36.5032 F60.00
G01 X22.2801 Y36.5423 F60.00
G01 X22.2744 Y36.5484 F60.00
G01 X22.2678 Y36.5536 F60.00
G01 X22.2295 Y36.5768 F60.00
G01 X22.2239 Y36.5794 F60.00
G01 X22.2180 Y36.5813 F60.00
G01 X22.1731 Y36.5883 F60.00
G01 X22.1660 Y36.5889 F60.00
G01 X22.1081 Y36.5854 F60.00
G01 X20.6009 Y36.5854 F60.00
G01 X20.5931 Y36.5847 F60.00
G01 X20.5574 Y36.5789 F60.00
G01 X20.5527 Y36.5776 F60.00
G01 X20.5470 Y36.5752 F60.00
G01 X20.5175 Y36.5599 F60.00
G01 X20.5122 Y36.5568 F60.00
G01 X20.5056 Y36.5514 F60.00
G01 X20.4815 Y36.5267 F60.00
G01 X20.4774 Y36.5217 F60.00
G01 X20.4140 Y36.4325 F60.00
G01 X20.3054 Y36.3112 F60.00
G01 X20.1841 Y36.2026 F60.00
G01 X20.0515 Y36.1083 F60.00
G01 X19.9086 Y36.0293 F60.00
G01 X19.7584 Y35.9669 F60.00
G01 X19.6017 Y35.9223 F60.00
G01 X19.4411 Y35.8947 F60.00
G01 X19.2786 Y35.8854 F60.00
G01 X19.1161 Y35.8947 F60.00
G01 X18.9554 Y35.9223 F60.00
G01 X18.7988 Y35.9669 F60.00
G01 X18.6486 Y36.0293 F60.00
G01 X18.5057 Y36.1083 F60.00
G01 X18.3731 Y36.2026 F60.00
G01 X18.2518 Y36.3112 F60.00
G01 X18.1432 Y36.4325 F60.00
G01 X18.0489 Y36.5651 F60.00
G01 X17.9699 Y36.7080 F60.00
G01 X17.9075 Y36.8582 F60.00
G01 X17.8629 Y37.0148 F60.00
G01 X17.8353 Y37.1755 F60.00
G01 X17.8260 Y37.3380 F60.00
G01 X17.8353 Y37.5005 F60.00
G01 X17.8629 Y37.6611 F60.00
G01 X17.9075 Y37.8178 F60.00
G01 X17.9699 Y37.9680 F60.00
G01 X18.0489 Y38.1109 F60.00
G01 X18.1432 Y38.2435 F60.00
G01 X18.2518 Y38.3648 F60.00
G01 X18.3731 Y38.4734 F60.00
G01 X18.5057 Y38.5676 F60.00
G01 X18.6486 Y38.6467 F60.00
G01 X18.7988 Y38.7090 F60.00
G01 X18.9554 Y38.7537 F60.00
G01 X19.1161 Y38.7813 F60.00
G01 X19.2786 Y38.7906 F60.00
G01 X19.4411 Y38.7813 F60.00
G01 X19.6017 Y38.7537 F60.00
G01 X19.7584 Y38.7090 F60.00
G01 X19.9086 Y38.6467 F60.00
G01 X20.0515 Y38.5676 F60.00
G01 X20.1841 Y38.4734 F60.00
G01 X20.3054 Y38.3648 F60.00
G01 X20.4140 Y38.2435 F60.00
G01 X20.4774 Y38.1543 F60.00
G01 X20.4815 Y38.1493 F60.00
G01 X20.5056 Y38.1246 F60.00
G01 X20.5122 Y38.1192 F60.00
G01 X20.5175 Y38.1161 F60.00
G01 X20.5470 Y38.1008 F60.00
G01 X20.5562 Y38.0973 F60.00
G01 X20.5931 Y38.0913 F60.00
G01 X20.6009 Y38.0906 F60.00
G01 X21.7390 Y38.0907 F60.00
G01 X21.7462 Y38.0913 F60.00
G01 X21.7865 Y38.0992 F60.00
G01 X21.7947 Y38.1015 F60.00
G01 X21.8035 Y38.1059 F60.00
G01 X21.8386 Y38.1291 F60.00
G01 X21.8453 Y38.1347 F60.00
G01 X24.6840 Y40.9740 F60.00
G01 X24.6887 Y40.9793 F60.00
G01 X24.7121 Y41.0138 F60.00
G01 X24.7146 Y41.0182 F60.00
G01 X24.7167 Y41.0228 F60.00
G01 X24.7188 Y41.0301 F60.00
G01 X24.7272 Y41.0684 F60.00
G01 X24.7281 Y41.0756 F60.00
G01 X24.7280 Y41.0817 F60.00
G01 X24.7220 Y41.1224 F60.00
G01 X24.7207 Y41.1283 F60.00
G01 X24.6895 Y41.2164 F60.00
G01 X24.6429 Y41.4021 F60.00
G01 X24.6147 Y41.5918 F60.00
G01 X24.6053 Y41.7830 F60.00
G01 X24.6147 Y41.9742 F60.00
G01 X24.6429 Y42.1639 F60.00
G01 X24.6895 Y42.3496 F60.00
G01 X24.7538 Y42.5299 F60.00
G01 X24.8361 Y42.7033 F60.00
G01 X24.9341 Y42.8677 F60.00
G01 X25.0485 Y43.0217 F60.00
G01 X25.1773 Y43.1634 F60.00
G01 X25.3190 Y43.2922 F60.00
G01 X25.4730 Y43.4066 F60.00
G01 X25.6374 Y43.5046 F60.00
G01 X25.8108 Y43.5869 F60.00
G01 X25.9911 Y43.6513 F60.00
G01 X26.1769 Y43.6978 F60.00
G01 X26.3666 Y43.7261 F60.00
G01 X26.5577 Y43.7355 F60.00
G01 X26.7489 Y43.7261 F60.00
G01 X26.9386 Y43.6978 F60.00
G01 X27.1244 Y43.6513 F60.00
G01 X27.3046 Y43.5869 F60.00
G01 X27.4780 Y43.5046 F60.00
G01 X27.6425 Y43.4066 F60.00
G01 X27.7964 Y43.2922 F60.00
G01 X27.9381 Y43.1634 F60.00
G01 X28.0669 Y43.0217 F60.00
G01 X28.1813 Y42.8677 F60.00
G01 X28.2794 Y42.7033 F60.00
G01 X28.3616 Y42.5299 F60.00
G01 X28.4260 Y42.3496 F60.00
G01 X28.4726 Y42.1639 F60.00
G01 X28.5008 Y41.9742 F60.00
G01 X28.5102 Y41.7830 F60.00
G01 X28.5008 Y41.5918 F60.00
G01 X28.4726 Y41.4021 F60.00
G01 X28.4260 Y41.2164 F60.00
G01 X28.3616 Y41.0361 F60.00
G01 X28.2794 Y40.8627 F60.00
G01 X28.1813 Y40.6983 F60.00
G01 X28.0669 Y40.5443 F60.00
G01 X27.9381 Y40.4026 F60.00
G01 X27.7964 Y40.2738 F60.00
G01 X27.6425 Y40.1594 F60.00
G01 X27.4780 Y40.0613 F60.00
G01 X27.3046 Y39.9791 F60.00
G01 X27.1244 Y39.9147 F60.00
G01 X26.9386 Y39.8682 F60.00
G01 X26.7489 Y39.8399 F60.00
G01 X26.5577 Y39.8305 F60.00
G01 X26.3666 Y39.8399 F60.00
G01 X26.1769 Y39.8682 F60.00
G01 X25.9911 Y39.9147 F60.00
G01 X25.9065 Y39.9449 F60.00
G01 X25.8977 Y39.9472 F60.00
G01 X25.8589 Y39.9534 F60.00
G01 X25.8541 Y39.9539 F60.00
G01 X25.8480 Y39.9537 F60.00
G01 X25.8408 Y39.9526 F60.00
G01 X25.8025 Y39.9437 F60.00
G01 X25.7967 Y39.9418 F60.00
G01 X25.7901 Y39.9386 F60.00
G01 X25.7545 Y39.9146 F60.00
G01 X25.7482 Y39.9093 F60.00
G01 X23.6969 Y37.8580 F60.00
G01 X23.6920 Y37.8524 F60.00
G01 X23.6659 Y37.8111 F60.00
G01 X23.6617 Y37.8022 F60.00
G01 X23.6595 Y37.7937 F60.00
G01 X23.6533 Y37.7493 F60.00
G01 X23.6528 Y37.7434 F60.00
G01 X23.6530 Y37.7374 F60.00
G01 X23.6549 Y37.7280 F60.00
G01 X23.6698 Y37.6823 F60.00
G01 X23.6725 Y37.6765 F60.00
G01 X23.6794 Y37.6643 F60.00
G01 X23.7204 Y37.5600 F60.00
G01 X23.7451 Y37.4500 F60.00
G01 X23.7539 Y37.3326 F60.00
G01 X23.7540 Y37.1609 F60.00
G01 X23.7549 Y37.1546 F60.00
G01 X23.7633 Y37.1142 F60.00
G01 X23.7656 Y37.1070 F60.00
G01 X23.7689 Y37.1002 F60.00
G01 X23.7928 Y37.0640 F60.00
G01 X23.7985 Y37.0573 F60.00
G01 X24.6260 Y36.2297 F60.00
G01 X24.6297 Y36.2264 F60.00
G01 X24.6338 Y36.2234 F60.00
G01 X24.6678 Y36.2009 F60.00
G01 X24.6754 Y36.1970 F60.00
G01 X24.6835 Y36.1945 F60.00
G01 X24.7233 Y36.1866 F60.00
G01 X24.7330 Y36.1856 F60.00
G01 X37.5320 Y36.1856 F60.00
G01 X37.5417 Y36.1866 F60.00
G01 X37.5815 Y36.1945 F60.00
G01 X37.5885 Y36.1966 F60.00
G01 X37.5972 Y36.2009 F60.00
G01 X37.6313 Y36.2234 F60.00
G01 X37.6363 Y36.2272 F60.00
G01 X37.6399 Y36.2306 F60.00
G01 X37.6447 Y36.2365 F60.00
G01 X37.6679 Y36.2716 F60.00
G01 X37.6714 Y36.2783 F60.00
G01 X37.6742 Y36.2867 F60.00
G01 X37.6832 Y36.3307 F60.00
G01 X37.6836 Y36.3391 F60.00
G01 X37.6828 Y36.3464 F60.00
G01 X37.6742 Y36.3874 F60.00
G01 X37.6714 Y36.3957 F60.00
G01 X37.6679 Y36.4024 F60.00
G01 X37.6447 Y36.4375 F60.00
G01 X37.6392 Y36.4440 F60.00
G01 X37.6337 Y36.4488 F60.00
G01 X37.5943 Y36.4753 F60.00
G01 X37.5897 Y36.4774 F60.00
G01 X37.4445 Y36.5373 F60.00
G01 X37.3017 Y36.6163 F60.00
G01 X37.1691 Y36.7106 F60.00
G01 X37.0478 Y36.8192 F60.00
G01 X36.9392 Y36.9405 F60.00
G01 X36.8449 Y37.0731 F60.00
G01 X36.7659 Y37.2160 F60.00
G01 X36.7035 Y37.3662 F60.00
G01 X36.6589 Y37.5228 F60.00
G01 X36.6313 Y37.6835 F60.00
G01 X36.6220 Y37.8460 F60.00
G01 X36.6313 Y38.0085 F60.00
G01 X36.6589 Y38.1691 F60.00
G01 X36.7035 Y38.3258 F60.00
G01 X36.7659 Y38.4760 F60.00
G01 X36.8449 Y38.6189 F60.00
G01 X36.9392 Y38.7515 F60.00
G01 X37.0478 Y38.8728 F60.00
G01 X37.1691 Y38.9814 F60.00
G01 X37.3017 Y39.0756 F60.00
G01 X37.4446 Y39.1547 F60.00
G01 X37.5948 Y39.2170 F60.00
G01 X37.7514 Y39.2617 F60.00
G01 X37.9121 Y39.2893 F60.00
G01 X38.0746 Y39.2986 F60.00
G01 X38.2371 Y39.2893 F60.00
G01 X38.3977 Y39.2617 F60.00
G01 X38.5544 Y39.2170 F60.00
G01 X38.7046 Y39.1547 F60.00
G01 X38.8475 Y39.0756 F60.00
G01 X38.9801 Y38.9814 F60.00
G01 X39.1014 Y38.8728 F60.00
G01 X39.2100 Y38.7515 F60.00
G01 X39.2738 Y38.6621 F60.00
G01 X39.2780 Y38.6578 F60.00
G01 X39.3105 Y38.6283 F60.00
G01 X39.3165 Y38.6237 F60.00
G01 X39.3220 Y38.6206 F60.00
G01 X39.3278 Y38.6181 F60.00
G01 X39.3718 Y38.6042 F60.00
G01 X39.3803 Y38.6025 F60.00
G01 X39.3902 Y38.6024 F60.00
G01 X39.4376 Y38.6090 F60.00
G01 X39.4460 Y38.6111 F60.00
G01 X39.4550 Y38.6153 F60.00
G01 X39.4952 Y38.6407 F60.00
G01 X39.5019 Y38.6463 F60.00
G01 X41.7020 Y40.8470 F60.00
G01 X41.7074 Y40.8533 F60.00
G01 X41.7308 Y40.8879 F60.00
G01 X41.7342 Y40.8947 F60.00
G01 X41.7362 Y40.9006 F60.00
G01 X41.7450 Y40.9402 F60.00
G01 X41.7459 Y40.9462 F60.00
G01 X41.7461 Y40.9511 F60.00
G01 X41.7457 Y40.9571 F60.00
G01 X41.7398 Y40.9966 F60.00
G01 X41.7376 Y41.0048 F60.00
G01 X41.7075 Y41.0894 F60.00
G01 X41.6609 Y41.2751 F60.00
G01 X41.6327 Y41.4648 F60.00
G01 X41.6233 Y41.6560 F60.00
G01 X41.6327 Y41.8472 F60.00
G01 X41.6609 Y42.0369 F60.00
G01 X41.7075 Y42.2226 F60.00
G01 X41.7718 Y42.4029 F60.00
G01 X41.8541 Y42.5763 F60.00
G01 X41.9521 Y42.7407 F60.00
G01 X42.0665 Y42.8947 F60.00
G01 X42.1953 Y43.0364 F60.00
G01 X42.3370 Y43.1652 F60.00
G01 X42.4910 Y43.2796 F60.00
G01 X42.6554 Y43.3776 F60.00
G01 X42.8288 Y43.4599 F60.00
G01 X43.0091 Y43.5243 F60.00
G01 X43.1949 Y43.5708 F60.00
G01 X43.3846 Y43.5991 F60.00
G01 X43.5757 Y43.6085 F60.00
G01 X43.7669 Y43.5991 F60.00
G01 X43.9566 Y43.5708 F60.00
G01 X44.1424 Y43.5243 F60.00
G01 X44.3226 Y43.4599 F60.00
G01 X44.4960 Y43.3776 F60.00
G01 X44.6605 Y43.2796 F60.00
G01 X44.8144 Y43.1652 F60.00
G01 X44.9561 Y43.0364 F60.00
G01 X45.0849 Y42.8947 F60.00
G01 X45.1993 Y42.7407 F60.00
G01 X45.2974 Y42.5763 F60.00
G01 X45.3796 Y42.4029 F60.00
G01 X45.4440 Y42.2226 F60.00
G01 X45.4906 Y42.0369 F60.00
G01 X45.5188 Y41.8472 F60.00
G01 X45.5282 Y41.6560 F60.00
G01 X45.5188 Y41.4648 F60.00
G01 X45.4906 Y41.2751 F60.00
G01 X45.4440 Y41.0894 F60.00
G01 X45.3796 Y40.9091 F60.00
G01 X45.2974 Y40.7357 F60.00
G01 X45.1993 Y40.5713 F60.00
G01 X45.0849 Y40.4173 F60.00
G01 X44.9561 Y40.2756 F60.00
G01 X44.8144 Y40.1468 F60.00
G01 X44.6575 Y40.0302 F60.00
G01 X44.6121 Y39.9913 F60.00
G01 X44.6077 Y39.9868 F60.00
G01 X44.6046 Y39.9829 F60.00
G01 X44.6019 Y39.9786 F60.00
G01 X44.5992 Y39.9730 F60.00
G01 X44.5825 Y39.9317 F60.00
G01 X44.5802 Y39.9237 F60.00
G01 X44.5796 Y39.9189 F60.00
G01 X44.5793 Y39.9129 F60.00
G01 X44.5814 Y39.8680 F60.00
G01 X44.5829 Y39.8582 F60.00
G01 X44.5862 Y39.8488 F60.00
G01 X44.6088 Y39.8070 F60.00
G01 X44.6144 Y39.7990 F60.00
G01 X44.6205 Y39.7931 F60.00
G01 X44.6560 Y39.7654 F60.00
G01 X44.6601 Y39.7625 F60.00
G01 X44.6656 Y39.7595 F60.00
G01 X44.6714 Y39.7572 F60.00
G01 X44.6762 Y39.7559 F60.00
G01 X44.7201 Y39.7466 F60.00
G01 X44.7282 Y39.7457 F60.00
G01 X47.4218 Y39.7457 F60.00
G01 X47.4276 Y39.7460 F60.00
G01 X47.4323 Y39.7468 F60.00
G01 X47.4749 Y39.7559 F60.00
G01 X47.4820 Y39.7580 F60.00
G01 X47.4888 Y39.7611 F60.00
G01 X47.4939 Y39.7645 F60.00
G01 X47.5309 Y39.7929 F60.00
G01 X47.5370 Y39.7986 F60.00
G01 X47.5407 Y39.8034 F60.00
G01 X47.5438 Y39.8085 F60.00
G01 X47.5647 Y39.8482 F60.00
G01 X47.5678 Y39.8564 F60.00
G01 X47.5690 Y39.8612 F60.00
G01 X47.5698 Y39.8675 F60.00
G01 X47.5724 Y39.9124 F60.00
G01 X47.5717 Y39.9222 F60.00
G01 X47.5707 Y39.9270 F60.00
G01 X47.5687 Y39.9328 F60.00
G01 X47.5520 Y39.9741 F60.00
G01 X47.5485 Y39.9808 F60.00
G01 X47.5440 Y39.9868 F60.00
G01 X47.5396 Y39.9913 F60.00
G01 X47.4942 Y40.0302 F60.00
G01 X47.3372 Y40.1468 F60.00
G01 X47.1950 Y40.2756 F60.00
G01 X47.0663 Y40.4173 F60.00
G01 X46.9524 Y40.5713 F60.00
G01 X46.8538 Y40.7358 F60.00
G01 X46.8506 Y40.7424 F60.00
G01 X47.2016 Y40.7424 F60.00
G01 X47.2049 Y40.7373 F60.00
G01 X47.3000 Y40.6093 F60.00
G01 X47.4087 Y40.4893 F60.00
G01 X47.5287 Y40.3805 F60.00
G01 X47.6568 Y40.2855 F60.00
G01 X47.6624 Y40.2818 F60.00
G01 X47.6624 Y39.8973 F60.00
G01 X47.6631 Y39.8889 F60.00
G01 X47.6718 Y39.8450 F60.00
G01 X47.6748 Y39.8368 F60.00
G01 X47.6785 Y39.8303 F60.00
G01 X47.7010 Y39.7968 F60.00
G01 X47.7064 Y39.7904 F60.00
G01 X47.7128 Y39.7849 F60.00
G01 X47.7479 Y39.7612 F60.00
G01 X47.7557 Y39.7571 F60.00
G01 X47.7628 Y39.7548 F60.00
G01 X47.8056 Y39.7464 F60.00
G01 X47.8127 Y39.7457 F60.00
G01 X48.6372 Y39.7452 F60.00
G01 X48.7263 Y39.7370 F60.00
G01 X48.7485 Y39.7330 F60.00
G01 X48.8346 Y39.7119 F60.00
G01 X48.9411 Y39.6697 F60.00
G01 X48.9607 Y39.6600 F60.00
G01 X49.0376 Y39.6132 F60.00
G01 X49.0560 Y39.6001 F60.00
G01 X49.1250 Y39.5433 F60.00
G01 X52.5948 Y36.0735 F60.00
G01 X52.6516 Y36.0045 F60.00
G01 X52.6645 Y35.9865 F60.00
G01 X52.7219 Y35.8881 F60.00
G01 X52.7634 Y35.7830 F60.00
G01 X52.7846 Y35.6970 F60.00
G01 X52.7885 Y35.6748 F60.00
G01 X52.7967 Y35.5856 F60.00
G01 X52.7972 Y33.1363 F60.00
G01 X52.7977 Y33.1295 F60.00
G01 X52.8034 Y33.0945 F60.00
G01 X52.8050 Y33.0888 F60.00
G01 X52.8072 Y33.0832 F60.00
G01 X52.8225 Y33.0532 F60.00
G01 X52.8257 Y33.0478 F60.00
G01 X52.8312 Y33.0410 F60.00
G01 X52.8550 Y33.0178 F60.00
G01 X52.8609 Y33.0128 F60.00
G01 X52.9979 Y32.9153 F60.00
G01 X53.1197 Y32.8068 F60.00
G01 X53.2279 Y32.6858 F60.00
G01 X53.2390 Y32.6697 F60.00
G01 X53.2427 Y32.6651 F60.00
G01 X53.2740 Y32.6354 F60.00
G01 X53.2806 Y32.6303 F60.00
G01 X53.2891 Y32.6260 F60.00
G01 X53.3276 Y32.6109 F60.00
G01 X53.3348 Y32.6091 F60.00
G01 X53.3423 Y32.6083 F60.00
G01 X53.3829 Y32.6083 F60.00
G01 X53.3879 Y32.6087 F60.00
G01 X53.3928 Y32.6096 F60.00
G01 X53.4000 Y32.6118 F60.00
G01 X53.4372 Y32.6265 F60.00
G01 X53.4435 Y32.6297 F60.00
G01 X53.4485 Y32.6331 F60.00
G01 X53.4825 Y32.6651 F60.00
G01 X53.4862 Y32.6697 F60.00
G01 X53.4973 Y32.6858 F60.00
G01 X53.6055 Y32.8068 F60.00
G01 X53.7274 Y32.9153 F60.00
G01 X53.8182 Y32.9804 F60.00
G01 X53.8457 Y33.0070 F60.00
G01 X53.8511 Y33.0136 F60.00
G01 X53.8543 Y33.0188 F60.00
G01 X53.8690 Y33.0473 F60.00
G01 X53.8716 Y33.0530 F60.00
G01 X53.8736 Y33.0603 F60.00
G01 X53.8796 Y33.0943 F60.00
G01 X53.8802 Y33.1016 F60.00
G01 X53.8807 Y33.2213 F60.00
G01 X53.8890 Y33.3100 F60.00
G01 X53.8929 Y33.3323 F60.00
G01 X53.9144 Y33.4198 F60.00
G01 X53.9213 Y33.4410 F60.00
G01 X53.9560 Y33.5239 F60.00
G01 X53.9660 Y33.5441 F60.00
G01 X54.0123 Y33.6215 F60.00
G01 X54.0253 Y33.6397 F60.00
G01 X54.0826 Y33.7086 F60.00
G01 X56.7088 Y36.3354 F60.00
G01 X56.7122 Y36.3391 F60.00
G01 X56.7152 Y36.3432 F60.00
G01 X56.7377 Y36.3772 F60.00
G01 X56.7416 Y36.3848 F60.00
G01 X56.7444 Y36.3941 F60.00
G01 X56.7522 Y36.4339 F60.00
G01 X56.7529 Y36.4412 F60.00
G01 X56.7529 Y36.8160 F60.00
G01 X56.7520 Y36.8243 F60.00
G01 X56.7432 Y36.8682 F60.00
G01 X56.7411 Y36.8739 F60.00
G01 X56.7383 Y36.8794 F60.00
G01 X56.7145 Y36.9155 F60.00
G01 X56.7088 Y36.9222 F60.00
G01 X56.7021 Y36.9279 F60.00
G01 X56.6670 Y36.9511 F60.00
G01 X56.6583 Y36.9555 F60.00
G01 X56.6500 Y36.9578 F60.00
G01 X56.6097 Y36.9657 F60.00
G01 X56.6026 Y36.9663 F60.00
G01 X56.0326 Y36.9663 F60.00
G01 X56.0261 Y36.9657 F60.00
G01 X55.9929 Y36.9605 F60.00
G01 X55.9881 Y36.9593 F60.00
G01 X55.9823 Y36.9573 F60.00
G01 X55.9505 Y36.9409 F60.00
G01 X55.9442 Y36.9371 F60.00
G01 X55.9386 Y36.9324 F60.00
G01 X55.9145 Y36.9077 F60.00
G01 X55.9104 Y36.9027 F60.00
G01 X55.8470 Y36.8135 F60.00
G01 X55.7384 Y36.6922 F60.00
G01 X55.6171 Y36.5836 F60.00
G01 X55.4845 Y36.4893 F60.00
G01 X55.3416 Y36.4103 F60.00
G01 X55.1914 Y36.3479 F60.00
G01 X55.0347 Y36.3033 F60.00
G01 X54.8741 Y36.2757 F60.00
G01 X54.7116 Y36.2664 F60.00
G01 X54.5491 Y36.2757 F60.00
G01 X54.3884 Y36.3033 F60.00
G01 X54.2318 Y36.3479 F60.00
G01 X54.0816 Y36.4103 F60.00
G01 X53.9387 Y36.4893 F60.00
G01 X53.8061 Y36.5836 F60.00
G01 X53.6848 Y36.6922 F60.00
G01 X53.5762 Y36.8135 F60.00
G01 X53.4819 Y36.9461 F60.00
G01 X53.4029 Y37.0890 F60.00
G01 X53.3405 Y37.2392 F60.00
G01 X53.2959 Y37.3958 F60.00
G01 X53.2683 Y37.5565 F60.00
G01 X53.2590 Y37.7190 F60.00
G01 X53.2683 Y37.8815 F60.00
G01 X53.2959 Y38.0421 F60.00
G01 X53.3405 Y38.1988 F60.00
G01 X53.4029 Y38.3490 F60.00
G01 X53.4819 Y38.4919 F60.00
G01 X53.5762 Y38.6245 F60.00
G01 X53.6848 Y38.7458 F60.00
G01 X53.8061 Y38.8544 F60.00
G01 X53.9387 Y38.9486 F60.00
G01 X54.0816 Y39.0277 F60.00
G01 X54.2318 Y39.0900 F60.00
G01 X54.3884 Y39.1347 F60.00
G01 X54.5491 Y39.1623 F60.00
G01 X54.7116 Y39.1716 F60.00
G01 X54.8741 Y39.1623 F60.00
G01 X55.0347 Y39.1347 F60.00
G01 X55.1914 Y39.0900 F60.00
G01 X55.3416 Y39.0277 F60.00
G01 X55.4845 Y38.9486 F60.00
G01 X55.6171 Y38.8544 F60.00
G01 X55.7384 Y38.7458 F60.00
G01 X55.8470 Y38.6245 F60.00
G01 X55.9111 Y38.5343 F60.00
G01 X55.9154 Y38.5293 F60.00
G01 X55.9377 Y38.5065 F60.00
G01 X55.9432 Y38.5016 F60.00
G01 X55.9483 Y38.4982 F60.00
G01 X55.9789 Y38.4823 F60.00
G01 X55.9846 Y38.4798 F60.00
G01 X55.9941 Y38.4773 F60.00
G01 X56.0261 Y38.4723 F60.00
G01 X56.0326 Y38.4717 F60.00
G01 X56.4118 Y38.4717 F60.00
G01 X56.4190 Y38.4726 F60.00
G01 X56.4576 Y38.4802 F60.00
G01 X56.4669 Y38.4830 F60.00
G01 X56.4745 Y38.4869 F60.00
G01 X56.5116 Y38.5116 F60.00
G01 X56.5163 Y38.5157 F60.00
G01 X58.9740 Y40.9734 F60.00
G01 X58.9787 Y40.9788 F60.00
G01 X59.0021 Y41.0133 F60.00
G01 X59.0065 Y41.0220 F60.00
G01 X59.0087 Y41.0290 F60.00
G01 X59.0176 Y41.0672 F60.00
G01 X59.0185 Y41.0732 F60.00
G01 X59.0185 Y41.0805 F60.00
G01 X59.0119 Y41.1230 F60.00
G01 X59.0108 Y41.1281 F60.00
G01 X58.9795 Y41.2164 F60.00
G01 X58.9329 Y41.4021 F60.00
G01 X58.9047 Y41.5918 F60.00
G01 X58.8953 Y41.7830 F60.00
G01 X58.9047 Y41.9742 F60.00
G01 X58.9329 Y42.1639 F60.00
G01 X58.9795 Y42.3496 F60.00
G01 X59.0438 Y42.5299 F60.00
G01 X59.1261 Y42.7033 F60.00
G01 X59.2241 Y42.8677 F60.00
G01 X59.3385 Y43.0217 F60.00
G01 X59.4673 Y43.1634 F60.00
G01 X59.6090 Y43.2922 F60.00
G01 X59.7630 Y43.4066 F60.00
G01 X59.9274 Y43.5046 F60.00
G01 X60.1008 Y43.5869 F60.00
G01 X60.2811 Y43.6513 F60.00
G01 X60.4669 Y43.6978 F60.00
G01 X60.6566 Y43.7261 F60.00
G01 X60.8477 Y43.7355 F60.00
G01 X61.0389 Y43.7261 F60.00
G01 X61.2286 Y43.6978 F60.00
G01 X61.4144 Y43.6513 F60.00
G01 X61.5946 Y43.5869 F60.00
G01 X61.7680 Y43.5046 F60.00
G01 X61.9325 Y43.4066 F60.00
G01 X62.0864 Y43.2922 F60.00
G01 X62.2281 Y43.1634 F60.00
G01 X62.3569 Y43.0217 F60.00
G01 X62.4713 Y42.8677 F60.00
G01 X62.5694 Y42.7033 F60.00
G01 X62.6516 Y42.5299 F60.00
G01 X62.7160 Y42.3496 F60.00
G01 X62.7626 Y42.1639 F60.00
G01 X62.7908 Y41.9742 F60.00
G01 X62.8002 Y41.7830 F60.00
G01 X62.7908 Y41.5918 F60.00
G01 X62.7626 Y41.4021 F60.00
G01 X62.7160 Y41.2164 F60.00
G01 X62.6516 Y41.0361 F60.00
G01 X62.5694 Y40.8627 F60.00
G01 X62.4713 Y40.6983 F60.00
G01 X62.3569 Y40.5443 F60.00
G01 X62.2281 Y40.4026 F60.00
G01 X62.0864 Y40.2738 F60.00
G01 X61.9325 Y40.1594 F60.00
G01 X61.7680 Y40.0613 F60.00
G01 X61.5946 Y39.9791 F60.00
G01 X61.4144 Y39.9147 F60.00
G01 X61.2286 Y39.8682 F60.00
G01 X61.0389 Y39.8399 F60.00
G01 X60.8477 Y39.8305 F60.00
G01 X60.6566 Y39.8399 F60.00
G01 X60.4669 Y39.8682 F60.00
G01 X60.2811 Y39.9147 F60.00
G01 X60.1930 Y39.9460 F60.00
G01 X60.1871 Y39.9473 F60.00
G01 X60.1495 Y39.9529 F60.00
G01 X60.1398 Y39.9533 F60.00
G01 X60.1314 Y39.9522 F60.00
G01 X60.0919 Y39.9435 F60.00
G01 X60.0847 Y39.9410 F60.00
G01 X60.0780 Y39.9374 F60.00
G01 X60.0445 Y39.9146 F60.00
G01 X60.0382 Y39.9093 F60.00
G01 X58.3023 Y38.1735 F60.00
G01 X58.2990 Y38.1697 F60.00
G01 X58.2735 Y38.1316 F60.00
G01 X58.2696 Y38.1241 F60.00
G01 X58.2668 Y38.1148 F60.00
G01 X58.2590 Y38.0750 F60.00
G01 X58.2582 Y38.0677 F60.00
G01 X58.2577 Y36.0424 F60.00
G01 X58.2495 Y35.9532 F60.00
G01 X58.2456 Y35.9310 F60.00
G01 X58.2244 Y35.8450 F60.00
G01 X58.1829 Y35.7399 F60.00
G01 X58.1255 Y35.6415 F60.00
G01 X58.1126 Y35.6235 F60.00
G01 X58.0558 Y35.5545 F60.00
G01 X55.5876 Y33.0858 F60.00
G01 X55.5834 Y33.0810 F60.00
G01 X55.5582 Y33.0429 F60.00
G01 X55.5543 Y33.0354 F60.00
G01 X55.5516 Y33.0262 F60.00
G01 X55.5440 Y32.9832 F60.00
G01 X55.5435 Y32.9745 F60.00
G01 X55.5445 Y32.9659 F60.00
G01 X55.5542 Y32.9234 F60.00
G01 X55.5560 Y32.9176 F60.00
G01 X55.5585 Y32.9121 F60.00
G01 X55.5624 Y32.9060 F60.00
G01 X55.5897 Y32.8694 F60.00
G01 X55.5938 Y32.8653 F60.00
G01 X55.6597 Y32.8067 F60.00
G01 X55.7679 Y32.6858 F60.00
G01 X55.7790 Y32.6697 F60.00
G01 X55.7835 Y32.6643 F60.00
G01 X55.8149 Y32.6346 F60.00
G01 X55.8217 Y32.6297 F60.00
G01 X55.8291 Y32.6260 F60.00
G01 X55.8664 Y32.6113 F60.00
G01 X55.8748 Y32.6091 F60.00
G01 X55.8823 Y32.6083 F60.00
G01 X55.9229 Y32.6083 F60.00
G01 X55.9304 Y32.6091 F60.00
G01 X55.9388 Y32.6113 F60.00
G01 X55.9772 Y32.6265 F60.00
G01 X55.9856 Y32.6310 F60.00
G01 X55.9921 Y32.6362 F60.00
G01 X56.0225 Y32.6651 F60.00
G01 X56.0262 Y32.6697 F60.00
G01 X56.0373 Y32.6858 F60.00
G01 X56.1455 Y32.8068 F60.00
G01 X56.2673 Y32.9153 F60.00
G01 X56.3571 Y32.9793 F60.00
G01 X56.3643 Y32.9856 F60.00
G01 X56.3949 Y33.0194 F60.00
G01 X56.4000 Y33.0265 F60.00
G01 X56.4042 Y33.0355 F60.00
G01 X56.4178 Y33.0779 F60.00
G01 X56.4193 Y33.0837 F60.00
G01 X56.4200 Y33.0884 F60.00
G01 X56.4289 Y33.1830 F60.00
G01 X56.4329 Y33.2053 F60.00
G01 X56.4544 Y33.2928 F60.00
G01 X56.4613 Y33.3140 F60.00
G01 X56.4960 Y33.3969 F60.00
G01 X56.5060 Y33.4171 F60.00
G01 X56.5523 Y33.4945 F60.00
G01 X56.5653 Y33.5127 F60.00
G01 X56.6226 Y33.5816 F60.00
G01 X58.2621 Y35.2212 F60.00
G01 X58.3311 Y35.2780 F60.00
G01 X58.3491 Y35.2909 F60.00
G01 X58.4475 Y35.3483 F60.00
G01 X58.5526 Y35.3898 F60.00
G01 X58.6386 Y35.4110 F60.00
G01 X58.6608 Y35.4149 F60.00
G01 X58.7500 Y35.4231 F60.00
G01 X73.8952 Y35.4236 F60.00
G01 X73.9049 Y35.4246 F60.00
G01 X73.9447 Y35.4325 F60.00
G01 X73.9517 Y35.4346 F60.00
G01 X73.9572 Y35.4371 F60.00
G01 X73.9614 Y35.4396 F60.00
G01 X73.9955 Y35.4621 F60.00
G01 X74.0022 Y35.4677 F60.00
G01 X74.8698 Y36.3354 F60.00
G01 X74.8732 Y36.3391 F60.00
G01 X74.8762 Y36.3432 F60.00
G01 X74.8987 Y36.3772 F60.00
G01 X74.9026 Y36.3848 F60.00
G01 X74.9051 Y36.3929 F60.00
G01 X74.9136 Y36.4363 F60.00
G01 X74.9139 Y36.4424 F60.00
G01 X74.9139 Y36.6860 F60.00
G01 X74.9131 Y36.6937 F60.00
G01 X74.9043 Y36.7361 F60.00
G01 X74.9026 Y36.7421 F60.00
G01 X74.9007 Y36.7468 F60.00
G01 X74.8964 Y36.7544 F60.00
G01 X74.8708 Y36.7894 F60.00
G01 X74.8670 Y36.7940 F60.00
G01 X74.8627 Y36.7981 F60.00
G01 X74.8569 Y36.8023 F60.00
G01 X74.8198 Y36.8243 F60.00
G01 X74.8154 Y36.8266 F60.00
G01 X74.8095 Y36.8289 F60.00
G01 X74.8010 Y36.8308 F60.00
G01 X74.7576 Y36.8355 F60.00
G01 X74.7515 Y36.8358 F60.00
G01 X74.7442 Y36.8352 F60.00
G01 X74.7371 Y36.8335 F60.00
G01 X74.6925 Y36.8191 F60.00
G01 X74.6872 Y36.8165 F60.00
G01 X74.6354 Y36.7868 F60.00
G01 X74.5328 Y36.7462 F60.00
G01 X74.4467 Y36.7250 F60.00
G01 X74.4245 Y36.7211 F60.00
G01 X74.3354 Y36.7129 F60.00
G01 X72.9249 Y36.7124 F60.00
G01 X72.9184 Y36.7119 F60.00
G01 X72.8839 Y36.7065 F60.00
G01 X72.8779 Y36.7050 F60.00
G01 X72.8721 Y36.7028 F60.00
G01 X72.8415 Y36.6869 F60.00
G01 X72.8342 Y36.6824 F60.00
G01 X72.8287 Y36.6775 F60.00
G01 X72.8064 Y36.6546 F60.00
G01 X72.8021 Y36.6497 F60.00
G01 X72.7380 Y36.5595 F60.00
G01 X72.6294 Y36.4382 F60.00
G01 X72.5081 Y36.3296 F60.00
G01 X72.3755 Y36.2353 F60.00
G01 X72.2326 Y36.1563 F60.00
G01 X72.0824 Y36.0939 F60.00
G01 X71.9257 Y36.0493 F60.00
G01 X71.7651 Y36.0217 F60.00
G01 X71.6026 Y36.0124 F60.00
G01 X71.4401 Y36.0217 F60.00
G01 X71.2794 Y36.0493 F60.00
G01 X71.1228 Y36.0939 F60.00
G01 X70.9726 Y36.1563 F60.00
G01 X70.8297 Y36.2353 F60.00
G01 X70.6971 Y36.3296 F60.00
G01 X70.5758 Y36.4382 F60.00
G01 X70.4672 Y36.5595 F60.00
G01 X70.3729 Y36.6921 F60.00
G01 X70.2939 Y36.8350 F60.00
G01 X70.2315 Y36.9852 F60.00
G01 X70.1869 Y37.1418 F60.00
G01 X70.1593 Y37.3025 F60.00
G01 X70.1500 Y37.4650 F60.00
G01 X70.1593 Y37.6275 F60.00
G01 X70.1869 Y37.7881 F60.00
G01 X70.2315 Y37.9448 F60.00
G01 X70.2939 Y38.0950 F60.00
G01 X70.3729 Y38.2379 F60.00
G01 X70.4672 Y38.3705 F60.00
G01 X70.5758 Y38.4918 F60.00
G01 X70.6971 Y38.6004 F60.00
G01 X70.8297 Y38.6946 F60.00
G01 X70.9726 Y38.7737 F60.00
G01 X71.1228 Y38.8360 F60.00
G01 X71.2794 Y38.8807 F60.00
G01 X71.4401 Y38.9083 F60.00
G01 X71.6026 Y38.9176 F60.00
G01 X71.7651 Y38.9083 F60.00
G01 X71.9257 Y38.8807 F60.00
G01 X72.0824 Y38.8360 F60.00
G01 X72.2326 Y38.7737 F60.00
G01 X72.3755 Y38.6946 F60.00
G01 X72.5081 Y38.6004 F60.00
G01 X72.6294 Y38.4918 F60.00
G01 X72.7380 Y38.3705 F60.00
G01 X72.8021 Y38.2803 F60.00
G01 X72.8064 Y38.2753 F60.00
G01 X72.8287 Y38.2525 F60.00
G01 X72.8342 Y38.2476 F60.00
G01 X72.8404 Y38.2436 F60.00
G01 X72.8710 Y38.2278 F60.00
G01 X72.8802 Y38.2243 F60.00
G01 X72.9171 Y38.2183 F60.00
G01 X72.9249 Y38.2176 F60.00
G01 X73.9360 Y38.2177 F60.00
G01 X73.9432 Y38.2183 F60.00
G01 X73.9835 Y38.2262 F60.00
G01 X73.9917 Y38.2285 F60.00
G01 X74.0005 Y38.2329 F60.00
G01 X74.0356 Y38.2561 F60.00
G01 X74.0423 Y38.2617 F60.00
G01 X76.5000 Y40.7200 F60.00
G01 X76.5054 Y40.7263 F60.00
G01 X76.5281 Y40.7598 F60.00
G01 X76.5306 Y40.7642 F60.00
G01 X76.5327 Y40.7688 F60.00
G01 X76.5348 Y40.7761 F60.00
G01 X76.5432 Y40.8144 F60.00
G01 X76.5441 Y40.8216 F60.00
G01 X76.5439 Y40.8288 F60.00
G01 X76.5380 Y40.8688 F60.00
G01 X76.5367 Y40.8749 F60.00
G01 X76.5054 Y40.9624 F60.00
G01 X76.4589 Y41.1481 F60.00
G01 X76.4307 Y41.3378 F60.00
G01 X76.4213 Y41.5290 F60.00
G01 X76.4307 Y41.7202 F60.00
G01 X76.4589 Y41.9099 F60.00
G01 X76.5055 Y42.0956 F60.00
G01 X76.5698 Y42.2759 F60.00
G01 X76.6521 Y42.4493 F60.00
G01 X76.7501 Y42.6137 F60.00
G01 X76.8645 Y42.7677 F60.00
G01 X76.9933 Y42.9094 F60.00
G01 X77.1350 Y43.0382 F60.00
G01 X77.2890 Y43.1526 F60.00
G01 X77.4534 Y43.2506 F60.00
G01 X77.6268 Y43.3329 F60.00
G01 X77.8071 Y43.3973 F60.00
G01 X77.9929 Y43.4438 F60.00
G01 X78.1826 Y43.4721 F60.00
G01 X78.3737 Y43.4815 F60.00
G01 X78.5649 Y43.4721 F60.00
G01 X78.7546 Y43.4438 F60.00
G01 X78.9404 Y43.3973 F60.00
G01 X79.1206 Y43.3329 F60.00
G01 X79.2940 Y43.2506 F60.00
G01 X79.4585 Y43.1526 F60.00
G01 X79.6124 Y43.0382 F60.00
G01 X79.7541 Y42.9094 F60.00
G01 X79.8829 Y42.7677 F60.00
G01 X79.9973 Y42.6137 F60.00
G01 X80.0954 Y42.4493 F60.00
G01 X80.1776 Y42.2759 F60.00
G01 X80.2420 Y42.0956 F60.00
G01 X80.2886 Y41.9099 F60.00
G01 X80.3168 Y41.7202 F60.00
G01 X80.3262 Y41.5290 F60.00
G01 X80.3168 Y41.3378 F60.00
G01 X80.2886 Y41.1481 F60.00
G01 X80.2420 Y40.9624 F60.00
G01 X80.1776 Y40.7821 F60.00
G01 X80.0954 Y40.6087 F60.00
G01 X79.9973 Y40.4443 F60.00
G01 X79.8829 Y40.2903 F60.00
G01 X79.7541 Y40.1486 F60.00
G01 X79.6124 Y40.0198 F60.00
G01 X79.4585 Y39.9054 F60.00
G01 X79.2940 Y39.8073 F60.00
G01 X79.1206 Y39.7251 F60.00
G01 X78.9404 Y39.6607 F60.00
G01 X78.7546 Y39.6142 F60.00
G01 X78.5649 Y39.5859 F60.00
G01 X78.3737 Y39.5765 F60.00
G01 X78.1826 Y39.5859 F60.00
G01 X77.9929 Y39.6142 F60.00
G01 X77.8071 Y39.6607 F60.00
G01 X77.7225 Y39.6909 F60.00
G01 X77.7137 Y39.6932 F60.00
G01 X77.6749 Y39.6994 F60.00
G01 X77.6652 Y39.6998 F60.00
G01 X77.6580 Y39.6989 F60.00
G01 X77.6197 Y39.6900 F60.00
G01 X77.6138 Y39.6882 F60.00
G01 X77.6093 Y39.6863 F60.00
G01 X77.6030 Y39.6827 F60.00
G01 X77.5715 Y39.6613 F60.00
G01 X77.5642 Y39.6553 F60.00
G01 X76.4634 Y38.5550 F60.00
G01 X76.4577 Y38.5482 F60.00
G01 X76.4345 Y38.5131 F60.00
G01 X76.4301 Y38.5044 F60.00
G01 X76.4278 Y38.4961 F60.00
G01 X76.4199 Y38.4559 F60.00
G01 X76.4192 Y38.4487 F60.00
G01 X76.4187 Y36.0424 F60.00
G01 X76.4105 Y35.9532 F60.00
G01 X76.4066 Y35.9310 F60.00
G01 X76.3854 Y35.8450 F60.00
G01 X76.3439 Y35.7399 F60.00
G01 X76.2865 Y35.6415 F60.00
G01 X76.2736 Y35.6235 F60.00
G01 X76.2168 Y35.5545 F60.00
G01 X74.7831 Y34.1208 F60.00
G01 X74.7141 Y34.0640 F60.00
G01 X74.6961 Y34.0511 F60.00
G01 X74.5977 Y33.9937 F60.00
G01 X74.4926 Y33.9522 F60.00
G01 X74.4066 Y33.9310 F60.00
G01 X74.3844 Y33.9271 F60.00
G01 X74.2952 Y33.9189 F60.00
G01 X59.1500 Y33.9184 F60.00
G01 X59.1415 Y33.9176 F60.00
G01 X59.0993 Y33.9093 F60.00
G01 X59.0924 Y33.9070 F60.00
G01 X59.0848 Y33.9031 F60.00
G01 X59.0497 Y33.8799 F60.00
G01 X59.0430 Y33.8742 F60.00
G01 X58.1946 Y33.0259 F60.00
G01 X58.1889 Y33.0190 F60.00
G01 X58.1646 Y32.9819 F60.00
G01 X58.1609 Y32.9744 F60.00
G01 X58.1586 Y32.9663 F60.00
G01 X58.1511 Y32.9233 F60.00
G01 X58.1506 Y32.9146 F60.00
G01 X58.1515 Y32.9060 F60.00
G01 X58.1612 Y32.8634 F60.00
G01 X58.1631 Y32.8575 F60.00
G01 X58.1664 Y32.8507 F60.00
G01 X58.1698 Y32.8455 F60.00
G01 X58.1969 Y32.8099 F60.00
G01 X58.3079 Y32.6858 F60.00
G01 X58.3190 Y32.6697 F60.00
G01 X58.3219 Y32.6660 F60.00
G01 X58.3540 Y32.6354 F60.00
G01 X58.3577 Y32.6324 F60.00
G01 X58.3627 Y32.6291 F60.00
G01 X58.3691 Y32.6260 F60.00
G01 X58.4052 Y32.6118 F60.00
G01 X58.4136 Y32.6093 F60.00
G01 X58.4223 Y32.6083 F60.00
G01 X58.4616 Y32.6083 F60.00
G01 X58.4691 Y32.6089 F60.00
G01 X58.4776 Y32.6109 F60.00
G01 X58.5172 Y32.6265 F60.00
G01 X58.5246 Y32.6303 F60.00
G01 X58.5312 Y32.6354 F60.00
G01 X58.5625 Y32.6651 F60.00
G01 X58.5662 Y32.6697 F60.00
G01 X58.5773 Y32.6858 F60.00
G01 X58.6855 Y32.8068 F60.00
G01 X58.8073 Y32.9153 F60.00
G01 X58.9400 Y33.0096 F60.00
G01 X59.0823 Y33.0887 F60.00
G01 X59.2330 Y33.1510 F60.00
G01 X59.3892 Y33.1957 F60.00
G01 X59.5499 Y33.2232 F60.00
G01 X59.7128 Y33.2325 F60.00
G01 X59.8753 Y33.2232 F60.00
G01 X60.0360 Y33.1957 F60.00
G01 X60.1922 Y33.1510 F60.00
G01 X60.3429 Y33.0887 F60.00
G01 X60.4852 Y33.0096 F60.00
G01 X60.6179 Y32.9153 F60.00
G01 X60.7397 Y32.8068 F60.00
G01 X60.8479 Y32.6858 F60.00
G01 X60.8590 Y32.6697 F60.00
G01 X60.8627 Y32.6651 F60.00
G01 X60.8940 Y32.6354 F60.00
G01 X60.9006 Y32.6303 F60.00
G01 X60.9080 Y32.6265 F60.00
G01 X60.9476 Y32.6109 F60.00
G01 X60.9536 Y32.6093 F60.00
G01 X60.9598 Y32.6084 F60.00
G01 X61.0029 Y32.6083 F60.00
G01 X61.0079 Y32.6087 F60.00
G01 X61.0128 Y32.6096 F60.00
G01 X61.0200 Y32.6118 F60.00
G01 X61.0572 Y32.6265 F60.00
G01 X61.0625 Y32.6291 F60.00
G01 X61.0675 Y32.6324 F60.00
G01 X61.0721 Y32.6362 F60.00
G01 X61.1025 Y32.6651 F60.00
G01 X61.1062 Y32.6697 F60.00
G01 X61.1173 Y32.6858 F60.00
G01 X61.2255 Y32.8068 F60.00
G01 X61.3473 Y32.9153 F60.00
G01 X61.4800 Y33.0096 F60.00
G01 X61.5892 Y33.0703 F60.00
G01 X61.5892 Y32.7181 F60.00
G01 X61.5230 Y32.6689 F60.00
G01 X61.4394 Y32.5931 F60.00
G01 X61.3636 Y32.5095 F60.00
G01 X61.3147 Y32.4436 F60.00
G01 X61.2270 Y32.4434 F60.00
G01 X61.1833 Y32.4351 F60.00
G01 X61.1764 Y32.4329 F60.00
G01 X61.1710 Y32.4303 F60.00
G01 X61.1348 Y32.4079 F60.00
G01 X61.1289 Y32.4031 F60.00
G01 X61.1239 Y32.3976 F60.00
G01 X61.1000 Y32.3657 F60.00
G01 X61.0963 Y32.3595 F60.00
G01 X61.0931 Y32.3516 F60.00
G01 X61.0826 Y32.3149 F60.00
G01 X61.0811 Y32.3076 F60.00
G01 X61.0807 Y32.2989 F60.00
G01 X61.0845 Y32.2589 F60.00
G01 X61.0854 Y32.2531 F60.00
G01 X61.1286 Y32.1031 F60.00
G01 X61.1369 Y32.0535 F60.00
G01 X61.1245 Y32.0031 F60.00
G01 X61.1083 Y31.8939 F60.00
G01 X61.1026 Y31.7800 F60.00
G01 X61.1083 Y31.6660 F60.00
G01 X61.1245 Y31.5568 F60.00
G01 X61.1369 Y31.5065 F60.00
G01 X61.1286 Y31.4568 F60.00
G01 X61.0856 Y31.3080 F60.00
G01 X61.0845 Y31.3011 F60.00
G01 X61.0807 Y31.2585 F60.00
G01 X61.0811 Y31.2523 F60.00
G01 X61.0823 Y31.2462 F60.00
G01 X61.0931 Y31.2083 F60.00
G01 X61.0958 Y31.2016 F60.00
G01 X61.1000 Y31.1943 F60.00
G01 X61.1231 Y31.1633 F60.00
G01 X61.1272 Y31.1586 F60.00
G01 X61.1318 Y31.1543 F60.00
G01 X61.1369 Y31.1507 F60.00
G01 X61.1710 Y31.1297 F60.00
G01 X61.1775 Y31.1266 F60.00
G01 X61.1845 Y31.1246 F60.00
G01 X61.2222 Y31.1172 F60.00
G01 X61.2282 Y31.1164 F60.00
G01 X61.3147 Y31.1163 F60.00
G01 X61.3636 Y31.0504 F60.00
G01 X61.4394 Y30.9668 F60.00
G01 X61.5230 Y30.8910 F60.00
G01 X61.5892 Y30.8419 F60.00
G01 X61.5892 Y30.4897 F60.00
G01 X61.4800 Y30.5503 F60.00
G01 X61.3473 Y30.6446 F60.00
G01 X61.2255 Y30.7532 F60.00
G01 X61.1173 Y30.8742 F60.00
G01 X61.1062 Y30.8902 F60.00
G01 X61.1025 Y30.8948 F60.00
G01 X61.0721 Y30.9237 F60.00
G01 X61.0675 Y30.9276 F60.00
G01 X61.0625 Y30.9308 F60.00
G01 X61.0572 Y30.9335 F60.00
G01 X61.0200 Y30.9482 F60.00
G01 X61.0128 Y30.9504 F60.00
G01 X61.0079 Y30.9512 F60.00
G01 X61.0029 Y30.9516 F60.00
G01 X60.9585 Y30.9514 F60.00
G01 X60.9524 Y30.9504 F60.00
G01 X60.9464 Y30.9486 F60.00
G01 X60.9080 Y30.9335 F60.00
G01 X60.9017 Y30.9302 F60.00
G01 X60.8949 Y30.9253 F60.00
G01 X60.8627 Y30.8948 F60.00
G01 X60.8590 Y30.8902 F60.00
G01 X60.8479 Y30.8742 F60.00
G01 X60.7397 Y30.7532 F60.00
G01 X60.6179 Y30.6446 F60.00
G01 X60.4852 Y30.5503 F60.00
G01 X60.3429 Y30.4713 F60.00
G01 X60.1922 Y30.4089 F60.00
G01 X60.0360 Y30.3642 F60.00
G01 X59.8753 Y30.3367 F60.00
G01 X59.7128 Y30.3274 F60.00
G01 X59.5499 Y30.3367 F60.00
G01 X59.3892 Y30.3642 F60.00
G01 X59.2330 Y30.4089 F60.00
G01 X59.0823 Y30.4713 F60.00
G01 X58.9400 Y30.5503 F60.00
G01 X58.8073 Y30.6446 F60.00
G01 X58.6855 Y30.7532 F60.00
G01 X58.5773 Y30.8742 F60.00
G01 X58.5662 Y30.8902 F60.00
G01 X58.5625 Y30.8948 F60.00
G01 X58.5312 Y30.9246 F60.00
G01 X58.5246 Y30.9296 F60.00
G01 X58.5183 Y30.9330 F60.00
G01 X58.4800 Y30.9482 F60.00
G01 X58.4753 Y30.9498 F60.00
G01 X58.4704 Y30.9509 F60.00
G01 X58.4616 Y30.9516 F60.00
G01 X58.4223 Y30.9516 F60.00
G01 X58.4173 Y30.9512 F60.00
G01 X58.4124 Y30.9504 F60.00
G01 X58.4052 Y30.9482 F60.00
G01 X58.3680 Y30.9335 F60.00
G01 X58.3627 Y30.9308 F60.00
G01 X58.3577 Y30.9276 F60.00
G01 X58.3531 Y30.9237 F60.00
G01 X58.3227 Y30.8948 F60.00
G01 X58.3190 Y30.8902 F60.00
G01 X58.3079 Y30.8742 F60.00
G01 X58.1997 Y30.7532 F60.00
G01 X58.0779 Y30.6446 F60.00
G01 X57.9452 Y30.5503 F60.00
G01 X57.8029 Y30.4713 F60.00
G01 X57.6522 Y30.4089 F60.00
G01 X57.4960 Y30.3642 F60.00
G01 X57.3353 Y30.3367 F60.00
G01 X57.1728 Y30.3274 F60.00
G01 X57.0099 Y30.3367 F60.00
G01 X56.8492 Y30.3642 F60.00
G01 X56.6930 Y30.4089 F60.00
G01 X56.5423 Y30.4713 F60.00
G01 X56.4000 Y30.5503 F60.00
G01 X56.2673 Y30.6446 F60.00
G01 X56.1455 Y30.7532 F60.00
G01 X56.0373 Y30.8742 F60.00
G01 X56.0262 Y30.8902 F60.00
G01 X56.0225 Y30.8948 F60.00
G01 X55.9912 Y30.9246 F60.00
G01 X55.9846 Y30.9296 F60.00
G01 X55.9783 Y30.9330 F60.00
G01 X55.9400 Y30.9482 F60.00
G01 X55.9316 Y30.9506 F60.00
G01 X55.9267 Y30.9514 F60.00
G01 X55.9216 Y30.9516 F60.00
G01 X55.8823 Y30.9516 F60.00
G01 X55.8773 Y30.9512 F60.00
G01 X55.8724 Y30.9504 F60.00
G01 X55.8652 Y30.9482 F60.00
G01 X55.8280 Y30.9335 F60.00
G01 X55.8227 Y30.9308 F60.00
G01 X55.8177 Y30.9276 F60.00
G01 X55.8131 Y30.9237 F60.00
G01 X55.7827 Y30.8948 F60.00
G01 X55.7790 Y30.8902 F60.00
G01 X55.7679 Y30.8742 F60.00
G01 X55.6597 Y30.7532 F60.00
G01 X55.5379 Y30.6446 F60.00
G01 X55.4052 Y30.5503 F60.00
G01 X55.2629 Y30.4713 F60.00
G01 X55.1122 Y30.4089 F60.00
G01 X54.9560 Y30.3642 F60.00
G01 X54.7953 Y30.3367 F60.00
G01 X54.6328 Y30.3274 F60.00
G01 X54.4699 Y30.3367 F60.00
G01 X54.3092 Y30.3642 F60.00
G01 X54.1530 Y30.4089 F60.00
G01 X54.0023 Y30.4713 F60.00
G01 X53.8600 Y30.5503 F60.00
G01 X53.7273 Y30.6446 F60.00
G01 X53.6055 Y30.7532 F60.00
G01 X53.4973 Y30.8742 F60.00
G01 X53.4862 Y30.8902 F60.00
G01 X53.4825 Y30.8948 F60.00
G01 X53.4512 Y30.9246 F60.00
G01 X53.4446 Y30.9296 F60.00
G01 X53.4383 Y30.9330 F60.00
G01 X53.4000 Y30.9482 F60.00
G01 X53.3916 Y30.9506 F60.00
G01 X53.3867 Y30.9514 F60.00
G01 X53.3816 Y30.9516 F60.00
G01 X53.3423 Y30.9516 F60.00
G01 X53.3373 Y30.9512 F60.00
G01 X53.3324 Y30.9504 F60.00
G01 X53.3252 Y30.9482 F60.00
G01 X53.2880 Y30.9335 F60.00
G01 X53.2827 Y30.9308 F60.00
G01 X53.2777 Y30.9276 F60.00
G01 X53.2731 Y30.9237 F60.00
G01 X53.2427 Y30.8948 F60.00
G01 X53.2390 Y30.8902 F60.00
G01 X53.2279 Y30.8742 F60.00
G01 X53.1197 Y30.7532 F60.00
G01 X52.9979 Y30.6446 F60.00
G01 X52.8652 Y30.5503 F60.00
G01 X52.7229 Y30.4713 F60.00
G01 X52.5722 Y30.4089 F60.00
G01 X52.4160 Y30.3642 F60.00
G01 X52.2553 Y30.3367 F60.00
G01 X52.0928 Y30.3274 F60.00
G01 X51.9299 Y30.3367 F60.00
G01 X51.7692 Y30.3642 F60.00
G01 X51.6130 Y30.4089 F60.00
G01 X51.4623 Y30.4713 F60.00
G01 X51.3200 Y30.5503 F60.00
G01 X51.1873 Y30.6446 F60.00
G01 X51.0655 Y30.7532 F60.00
G01 X50.9573 Y30.8742 F60.00
G01 X50.9462 Y30.8902 F60.00
G01 X50.9425 Y30.8948 F60.00
G01 X50.9121 Y30.9237 F60.00
G01 X50.9075 Y30.9276 F60.00
G01 X50.9025 Y30.9308 F60.00
G01 X50.8972 Y30.9335 F60.00
G01 X50.8600 Y30.9482 F60.00
G01 X50.8528 Y30.9504 F60.00
G01 X50.8479 Y30.9512 F60.00
G01 X50.8429 Y30.9516 F60.00
G01 X50.8036 Y30.9516 F60.00
G01 X50.7985 Y30.9514 F60.00
G01 X50.7936 Y30.9506 F60.00
G01 X50.7852 Y30.9482 F60.00
G01 X50.7469 Y30.9330 F60.00
G01 X50.7406 Y30.9296 F60.00
G01 X50.7340 Y30.9246 F60.00
G01 X50.7027 Y30.8948 F60.00
G01 X50.6990 Y30.8902 F60.00
G01 X50.6879 Y30.8742 F60.00
G01 X50.5797 Y30.7532 F60.00
G01 X50.4579 Y30.6446 F60.00
G01 X50.3252 Y30.5503 F60.00
G01 X50.1829 Y30.4713 F60.00
G01 X50.0322 Y30.4089 F60.00
G01 X49.8760 Y30.3642 F60.00
G01 X49.7153 Y30.3367 F60.00
G01 X49.5528 Y30.3274 F60.00
G01 X49.3899 Y30.3367 F60.00
G01 X49.2292 Y30.3642 F60.00
G01 X49.0730 Y30.4089 F60.00
G01 X48.9223 Y30.4713 F60.00
G01 X48.7800 Y30.5503 F60.00
G01 X48.6473 Y30.6446 F60.00
G01 X48.5255 Y30.7532 F60.00
G01 X48.4173 Y30.8742 F60.00
G01 X48.4062 Y30.8902 F60.00
G01 X48.4025 Y30.8948 F60.00
G01 X48.3721 Y30.9237 F60.00
G01 X48.3675 Y30.9276 F60.00
G01 X48.3625 Y30.9308 F60.00
G01 X48.3572 Y30.9335 F60.00
G01 X48.3200 Y30.9482 F60.00
G01 X48.3128 Y30.9504 F60.00
G01 X48.3079 Y30.9512 F60.00
G01 X48.3029 Y30.9516 F60.00
G01 X48.2636 Y30.9516 F60.00
G01 X48.2585 Y30.9514 F60.00
G01 X48.2536 Y30.9506 F60.00
G01 X48.2452 Y30.9482 F60.00
G01 X48.2069 Y30.9330 F60.00
G01 X48.2006 Y30.9296 F60.00
G01 X48.1940 Y30.9246 F60.00
G01 X48.1627 Y30.8948 F60.00
G01 X48.1590 Y30.8902 F60.00
G01 X48.1479 Y30.8742 F60.00
G01 X48.0397 Y30.7532 F60.00
G01 X47.9179 Y30.6446 F60.00
G01 X47.7852 Y30.5503 F60.00
G01 X47.6429 Y30.4713 F60.00
G01 X47.4922 Y30.4089 F60.00
G01 X47.3360 Y30.3642 F60.00
G01 X47.1753 Y30.3367 F60.00
G01 X47.0128 Y30.3274 F60.00
G01 X46.8499 Y30.3367 F60.00
G01 X46.6892 Y30.3642 F60.00
G01 X46.5330 Y30.4089 F60.00
G01 X46.3823 Y30.4713 F60.00
G01 X46.2400 Y30.5503 F60.00
G01 X46.1073 Y30.6446 F60.00
G01 X45.9855 Y30.7532 F60.00
G01 X45.8773 Y30.8742 F60.00
G01 X45.8662 Y30.8902 F60.00
G01 X45.8625 Y30.8948 F60.00
G01 X45.8321 Y30.9237 F60.00
G01 X45.8275 Y30.9276 F60.00
G01 X45.8225 Y30.9308 F60.00
G01 X45.8172 Y30.9335 F60.00
G01 X45.7800 Y30.9482 F60.00
G01 X45.7728 Y30.9504 F60.00
G01 X45.7679 Y30.9512 F60.00
G01 X45.7629 Y30.9516 F60.00
G01 X45.7236 Y30.9516 F60.00
G01 X45.7185 Y30.9514 F60.00
G01 X45.7136 Y30.9506 F60.00
G01 X45.7052 Y30.9482 F60.00
G01 X45.6669 Y30.9330 F60.00
G01 X45.6606 Y30.9296 F60.00
G01 X45.6540 Y30.9246 F60.00
G01 X45.6227 Y30.8948 F60.00
G01 X45.6190 Y30.8902 F60.00
G01 X45.6079 Y30.8742 F60.00
G01 X45.4997 Y30.7532 F60.00
G01 X45.3779 Y30.6446 F60.00
G01 X45.2452 Y30.5503 F60.00
G01 X45.1029 Y30.4713 F60.00
G01 X44.9522 Y30.4089 F60.00
G01 X44.7960 Y30.3642 F60.00
G01 X44.6353 Y30.3367 F60.00
G01 X44.4724 Y30.3274 F60.00
G01 X44.3099 Y30.3367 F60.00
G01 X44.1492 Y30.3642 F60.00
G01 X43.9930 Y30.4089 F60.00
G01 X43.8423 Y30.4713 F60.00
G01 X43.7000 Y30.5503 F60.00
G01 X43.5673 Y30.6446 F60.00
G01 X43.4455 Y30.7532 F60.00
G01 X43.3373 Y30.8742 F60.00
G01 X43.3262 Y30.8902 F60.00
G01 X43.3225 Y30.8948 F60.00
G01 X43.2921 Y30.9237 F60.00
G01 X43.2875 Y30.9276 F60.00
G01 X43.2825 Y30.9308 F60.00
G01 X43.2772 Y30.9335 F60.00
G01 X43.2400 Y30.9482 F60.00
G01 X43.2328 Y30.9504 F60.00
G01 X43.2279 Y30.9512 F60.00
G01 X43.2229 Y30.9516 F60.00
G01 X43.1836 Y30.9516 F60.00
G01 X43.1785 Y30.9514 F60.00
G01 X43.1736 Y30.9506 F60.00
G01 X43.1652 Y30.9482 F60.00
G01 X43.1269 Y30.9330 F60.00
G01 X43.1206 Y30.9296 F60.00
G01 X43.1140 Y30.9246 F60.00
G01 X43.0827 Y30.8948 F60.00
G01 X43.0790 Y30.8902 F60.00
G01 X43.0679 Y30.8742 F60.00
G01 X42.9597 Y30.7532 F60.00
G01 X42.8379 Y30.6446 F60.00
G01 X42.7052 Y30.5503 F60.00
G01 X42.5629 Y30.4713 F60.00
G01 X42.4122 Y30.4089 F60.00
G01 X42.2560 Y30.3642 F60.00
G01 X42.0953 Y30.3367 F60.00
G01 X41.9324 Y30.3274 F60.00
G01 X41.7699 Y30.3367 F60.00
G01 X41.6092 Y30.3642 F60.00
G01 X41.4530 Y30.4089 F60.00
G01 X41.3023 Y30.4713 F60.00
G01 X41.1600 Y30.5503 F60.00
G01 X41.0273 Y30.6446 F60.00
G01 X40.9055 Y30.7532 F60.00
G01 X40.7973 Y30.8742 F60.00
G01 X40.7862 Y30.8902 F60.00
G01 X40.7825 Y30.8948 F60.00
G01 X40.7521 Y30.9237 F60.00
G01 X40.7475 Y30.9276 F60.00
G01 X40.7425 Y30.9308 F60.00
G01 X40.7372 Y30.9335 F60.00
G01 X40.7000 Y30.9482 F60.00
G01 X40.6928 Y30.9504 F60.00
G01 X40.6879 Y30.9512 F60.00
G01 X40.6829 Y30.9516 F60.00
G01 X40.6436 Y30.9516 F60.00
G01 X40.6385 Y30.9514 F60.00
G01 X40.6336 Y30.9506 F60.00
G01 X40.6252 Y30.9482 F60.00
G01 X40.5869 Y30.9330 F60.00
G01 X40.5806 Y30.9296 F60.00
G01 X40.5740 Y30.9246 F60.00
G01 X40.5427 Y30.8948 F60.00
G01 X40.5390 Y30.8902 F60.00
G01 X40.5279 Y30.8742 F60.00
G01 X40.4197 Y30.7532 F60.00
G01 X40.2979 Y30.6446 F60.00
G01 X40.1652 Y30.5503 F60.00
G01 X40.0229 Y30.4713 F60.00
G01 X39.8722 Y30.4089 F60.00
G01 X39.7160 Y30.3642 F60.00
G01 X39.5553 Y30.3367 F60.00
G01 X39.3924 Y30.3274 F60.00
G01 X39.2299 Y30.3367 F60.00
G01 X39.0692 Y30.3642 F60.00
G01 X38.9130 Y30.4089 F60.00
G01 X38.7623 Y30.4713 F60.00
G01 X38.6200 Y30.5503 F60.00
G01 X38.4873 Y30.6446 F60.00
G01 X38.3655 Y30.7532 F60.00
G01 X38.2573 Y30.8742 F60.00
G01 X38.2462 Y30.8902 F60.00
G01 X38.2425 Y30.8948 F60.00
G01 X38.2121 Y30.9237 F60.00
G01 X38.2075 Y30.9276 F60.00
G01 X38.2025 Y30.9308 F60.00
G01 X38.1972 Y30.9335 F60.00
G01 X38.1600 Y30.9482 F60.00
G01 X38.1528 Y30.9504 F60.00
G01 X38.1479 Y30.9512 F60.00
G01 X38.1429 Y30.9516 F60.00
G01 X38.1036 Y30.9516 F60.00
G01 X38.0985 Y30.9514 F60.00
G01 X38.0936 Y30.9506 F60.00
G01 X38.0852 Y30.9482 F60.00
G01 X38.0469 Y30.9330 F60.00
G01 X38.0406 Y30.9296 F60.00
G01 X38.0340 Y30.9246 F60.00
G01 X38.0027 Y30.8948 F60.00
G01 X37.9990 Y30.8902 F60.00
G01 X37.9879 Y30.8742 F60.00
G01 X37.8797 Y30.7532 F60.00
G01 X37.7579 Y30.6446 F60.00
G01 X37.6252 Y30.5503 F60.00
G01 X37.4829 Y30.4713 F60.00
G01 X37.3322 Y30.4089 F60.00
G01 X37.1760 Y30.3642 F60.00
G01 X37.0153 Y30.3367 F60.00
G01 X36.8524 Y30.3274 F60.00
G01 X36.6899 Y30.3367 F60.00
G01 X36.5292 Y30.3642 F60.00
G01 X36.3730 Y30.4089 F60.00
G01 X36.2223 Y30.4713 F60.00
G01 X36.0800 Y30.5503 F60.00
G01 X35.9473 Y30.6446 F60.00
G01 X35.8255 Y30.7532 F60.00
G01 X35.7173 Y30.8742 F60.00
G01 X35.7062 Y30.8902 F60.00
G01 X35.7025 Y30.8948 F60.00
G01 X35.6721 Y30.9237 F60.00
G01 X35.6675 Y30.9276 F60.00
G01 X35.6625 Y30.9308 F60.00
G01 X35.6572 Y30.9335 F60.00
G01 X35.6200 Y30.9482 F60.00
G01 X35.6128 Y30.9504 F60.00
G01 X35.6079 Y30.9512 F60.00
G01 X35.6029 Y30.9516 F60.00
G01 X35.5636 Y30.9516 F60.00
G01 X35.5585 Y30.9514 F60.00
G01 X35.5536 Y30.9506 F60.00
G01 X35.5452 Y30.9482 F60.00
G01 X35.5069 Y30.9330 F60.00
G01 X35.5006 Y30.9296 F60.00
G01 X35.4940 Y30.9246 F60.00
G01 X35.4627 Y30.8948 F60.00
G01 X35.4590 Y30.8902 F60.00
G01 X35.4479 Y30.8742 F60.00
G01 X35.3397 Y30.7532 F60.00
G01 X35.2179 Y30.6446 F60.00
G01 X35.0852 Y30.5503 F60.00
G01 X34.9429 Y30.4713 F60.00
G01 X34.7922 Y30.4089 F60.00
G01 X34.6360 Y30.3642 F60.00
G01 X34.4753 Y30.3367 F60.00
G01 X34.3124 Y30.3274 F60.00
G01 X34.1499 Y30.3367 F60.00
G01 X33.9892 Y30.3642 F60.00
G01 X33.8330 Y30.4089 F60.00
G01 X33.6823 Y30.4713 F60.00
G01 X33.5400 Y30.5503 F60.00
G01 X33.4073 Y30.6446 F60.00
G01 X33.2855 Y30.7532 F60.00
G01 X33.1773 Y30.8742 F60.00
G01 X33.1662 Y30.8902 F60.00
G01 X33.1625 Y30.8948 F60.00
G01 X33.1321 Y30.9237 F60.00
G01 X33.1275 Y30.9276 F60.00
G01 X33.1225 Y30.9308 F60.00
G01 X33.1172 Y30.9335 F60.00
G01 X33.0800 Y30.9482 F60.00
G01 X33.0728 Y30.9504 F60.00
G01 X33.0679 Y30.9512 F60.00
G01 X33.0629 Y30.9516 F60.00
G01 X33.0236 Y30.9516 F60.00
G01 X33.0185 Y30.9514 F60.00
G01 X33.0136 Y30.9506 F60.00
G01 X33.0052 Y30.9482 F60.00
G01 X32.9669 Y30.9330 F60.00
G01 X32.9606 Y30.9296 F60.00
G01 X32.9540 Y30.9246 F60.00
G01 X32.9227 Y30.8948 F60.00
G01 X32.9190 Y30.8902 F60.00
G01 X32.9079 Y30.8742 F60.00
G01 X32.7997 Y30.7532 F60.00
G01 X32.6779 Y30.6446 F60.00
G01 X32.5452 Y30.5503 F60.00
G01 X32.4029 Y30.4713 F60.00
G01 X32.2522 Y30.4089 F60.00
G01 X32.0960 Y30.3642 F60.00
G01 X31.9353 Y30.3367 F60.00
G01 X31.7724 Y30.3274 F60.00
G01 X31.6099 Y30.3367 F60.00
G01 X31.4492 Y30.3642 F60.00
G01 X31.2930 Y30.4089 F60.00
G01 X31.1423 Y30.4713 F60.00
G01 X31.0000 Y30.5503 F60.00
G01 X30.8673 Y30.6446 F60.00
G01 X30.7455 Y30.7532 F60.00
G01 X30.6373 Y30.8742 F60.00
G01 X30.6262 Y30.8902 F60.00
G01 X30.6225 Y30.8948 F60.00
G01 X30.5921 Y30.9237 F60.00
G01 X30.5865 Y30.9283 F60.00
G01 X30.5815 Y30.9314 F60.00
G01 X30.5761 Y30.9339 F60.00
G01 X30.5388 Y30.9486 F60.00
G01 X30.5316 Y30.9506 F60.00
G01 X30.5267 Y30.9514 F60.00
G01 X30.5216 Y30.9516 F60.00
G01 X30.4823 Y30.9516 F60.00
G01 X30.4736 Y30.9506 F60.00
G01 X30.4664 Y30.9486 F60.00
G01 X30.4280 Y30.9335 F60.00
G01 X30.4217 Y30.9302 F60.00
G01 X30.4149 Y30.9253 F60.00
G01 X30.3827 Y30.8948 F60.00
G01 X30.3790 Y30.8902 F60.00
G01 X30.3679 Y30.8742 F60.00
G01 X30.2597 Y30.7532 F60.00
G01 X30.1378 Y30.6446 F60.00
G01 X30.0481 Y30.5804 F60.00
G01 X30.0436 Y30.5766 F60.00
G01 X30.0193 Y30.5533 F60.00
G01 X30.0152 Y30.5486 F60.00
G01 X30.0110 Y30.5422 F60.00
G01 X29.9957 Y30.5126 F60.00
G01 X29.9932 Y30.5070 F60.00
G01 X29.9909 Y30.4987 F60.00
G01 X29.9851 Y30.4616 F60.00
G01 X29.9845 Y25.2951 F60.00
G01 X29.9762 Y25.2060 F60.00
G01 X29.9723 Y25.1838 F60.00
G01 X29.9508 Y25.0962 F60.00
G01 X29.9439 Y25.0750 F60.00
G01 X29.9092 Y24.9921 F60.00
G01 X29.8992 Y24.9719 F60.00
G01 X29.8529 Y24.8945 F60.00
G01 X29.8399 Y24.8763 F60.00
G01 X29.7826 Y24.8074 F60.00
G01 X28.2852 Y23.3100 F60.00
G01 X28.2163 Y23.2527 F60.00
G01 X28.1981 Y23.2397 F60.00
G01 X28.1207 Y23.1934 F60.00
G01 X28.1005 Y23.1834 F60.00
G01 X28.0176 Y23.1487 F60.00
G01 X27.9964 Y23.1418 F60.00
G01 X27.9088 Y23.1203 F60.00
G01 X27.8866 Y23.1163 F60.00
G01 X27.7975 Y23.1081 F60.00
G01 X20.7234 Y23.1074 F60.00
G01 X20.6873 Y23.1017 F60.00
G01 X20.6792 Y23.0995 F60.00
G01 X20.6737 Y23.0971 F60.00
G01 X20.6437 Y23.0818 F60.00
G01 X20.6386 Y23.0786 F60.00
G01 X20.6330 Y23.0741 F60.00
G01 X20.6059 Y23.0454 F60.00
G01 X20.5410 Y22.9548 F60.00
G01 X20.4324 Y22.8329 F60.00
G01 X20.3111 Y22.7244 F60.00
G01 X20.1786 Y22.6301 F60.00
G01 X20.0357 Y22.5516 F60.00
G01 X19.8853 Y22.4892 F60.00
G01 X19.7288 Y22.4440 F60.00
G01 X19.5681 Y22.4170 F60.00
G01 X19.4056 Y22.4077 F60.00
G00 Z2.0000
G00 X19.4056 Y22.4778
G01 F60.00
G01 Z0.0000
G01 F60.00
G01 X19.2509 Y22.4867 F60.00
G01 X19.0980 Y22.5124 F60.00
G01 X18.9490 Y22.5553 F60.00
G01 X18.8060 Y22.6147 F60.00
G01 X18.6704 Y22.6895 F60.00
G01 X18.5438 Y22.7792 F60.00
G01 X18.4284 Y22.8824 F60.00
G01 X18.3251 Y22.9984 F60.00
G01 X18.2352 Y23.1248 F60.00
G01 X18.1601 Y23.2601 F60.00
G01 X18.1012 Y23.4035 F60.00
G01 X18.0582 Y23.5524 F60.00
G01 X18.0320 Y23.7050 F60.00
G01 X18.0236 Y23.8597 F60.00
G01 X18.0320 Y24.0150 F60.00
G01 X18.0582 Y24.1676 F60.00
G01 X18.1012 Y24.3165 F60.00
G01 X18.1601 Y24.4599 F60.00
G01 X18.2352 Y24.5952 F60.00
G01 X18.3251 Y24.7216 F60.00
G01 X18.4285 Y24.8376 F60.00
G01 X18.5242 Y24.9236 F60.00
G01 X18.5325 Y24.9321 F60.00
G01 X18.5381 Y24.9391 F60.00
G01 X18.5669 Y24.9779 F60.00
G01 X18.5729 Y24.9878 F60.00
G01 X18.5768 Y24.9957 F60.00
G01 X18.5800 Y25.0038 F60.00
G01 X18.5835 Y25.0149 F60.00
G01 X18.5940 Y25.0652 F60.00
G01 X18.5956 Y25.0774 F60.00
G01 X18.5959 Y25.0866 F60.00
G01 X18.5958 Y26.0027 F60.00
G01 X18.5943 Y26.0170 F60.00
G01 X18.5861 Y26.0589 F60.00
G01 X18.5833 Y26.0706 F60.00
G01 X18.5803 Y26.0791 F60.00
G01 X18.5755 Y26.0900 F60.00
G01 X18.5712 Y26.0979 F60.00
G01 X18.5428 Y26.1402 F60.00
G01 X18.5374 Y26.1469 F60.00
G01 X18.5315 Y26.1532 F60.00
G01 X18.5207 Y26.1628 F60.00
G01 X18.5138 Y26.1679 F60.00
G01 X18.4808 Y26.1902 F60.00
G01 X18.4677 Y26.1979 F60.00
G01 X18.4567 Y26.2028 F60.00
G01 X18.4423 Y26.2074 F60.00
G01 X18.3973 Y26.2163 F60.00
G01 X18.3859 Y26.2179 F60.00
G01 X18.3744 Y26.2185 F60.00
G01 X17.1201 Y26.2190 F60.00
G01 X17.0370 Y26.2267 F60.00
G01 X17.0199 Y26.2297 F60.00
G01 X16.9408 Y26.2491 F60.00
G01 X16.8414 Y26.2884 F60.00
G01 X16.8272 Y26.2956 F60.00
G01 X16.7549 Y26.3395 F60.00
G01 X16.7406 Y26.3497 F60.00
G01 X16.6761 Y26.4028 F60.00
G01 X15.7323 Y27.3466 F60.00
G01 X15.6791 Y27.4111 F60.00
G01 X15.6695 Y27.4246 F60.00
G01 X15.6165 Y27.5156 F60.00
G01 X15.5786 Y27.6113 F60.00
G01 X15.5592 Y27.6905 F60.00
G01 X15.5561 Y27.7076 F60.00
G01 X15.5485 Y27.7906 F60.00
G01 X15.5479 Y39.0581 F60.00
G01 X15.5477 Y39.0666 F60.00
G01 X15.5468 Y39.0750 F60.00
G01 X15.5407 Y39.1113 F60.00
G01 X15.5390 Y39.1200 F60.00
G01 X15.5356 Y39.1314 F60.00
G01 X15.4959 Y39.2443 F60.00
G01 X15.4769 Y39.3444 F60.00
G01 X15.4730 Y39.4464 F60.00
G01 X15.4843 Y39.5479 F60.00
G01 X15.5105 Y39.6461 F60.00
G01 X15.5516 Y39.7395 F60.00
G01 X15.6056 Y39.8258 F60.00
G01 X15.6774 Y39.9090 F60.00
G01 X25.2892 Y49.5203 F60.00
G01 X25.3537 Y49.5734 F60.00
G01 X25.3672 Y49.5831 F60.00
G01 X25.4582 Y49.6361 F60.00
G01 X25.5539 Y49.6740 F60.00
G01 X25.6330 Y49.6934 F60.00
G01 X25.6502 Y49.6965 F60.00
G01 X25.7332 Y49.7041 F60.00
G01 X69.0850 Y49.7041 F60.00
G01 X69.1680 Y49.6965 F60.00
G01 X69.1851 Y49.6934 F60.00
G01 X69.2643 Y49.6740 F60.00
G01 X69.3600 Y49.6361 F60.00
G01 X69.4510 Y49.5831 F60.00
G01 X69.4644 Y49.5734 F60.00
G01 X69.5289 Y49.5203 F60.00
G01 X72.1009 Y46.9483 F60.00
G01 X72.1540 Y46.8839 F60.00
G01 X72.1637 Y46.8704 F60.00
G01 X72.2167 Y46.7794 F60.00
G01 X72.2546 Y46.6837 F60.00
G01 X72.2740 Y46.6045 F60.00
G01 X72.2771 Y46.5874 F60.00
G01 X72.2848 Y46.5051 F60.00
G01 X72.2854 Y46.4000 F60.00
G01 X72.2863 Y46.3908 F60.00
G01 X72.2918 Y46.3562 F60.00
G01 X72.2951 Y46.3419 F60.00
G01 X72.3000 Y46.3281 F60.00
G01 X72.3038 Y46.3201 F60.00
G01 X72.3213 Y46.2865 F60.00
G01 X72.3295 Y46.2743 F60.00
G01 X72.3371 Y46.2653 F60.00
G01 X72.3686 Y46.2345 F60.00
G01 X72.3784 Y46.2267 F60.00
G01 X72.4643 Y46.1656 F60.00
G01 X72.5798 Y46.0622 F60.00
G01 X72.6832 Y45.9467 F60.00
G01 X72.7729 Y45.8206 F60.00
G01 X72.8482 Y45.6846 F60.00
G01 X72.9074 Y45.5417 F60.00
G01 X72.9500 Y45.3926 F60.00
G01 X72.9762 Y45.2395 F60.00
G01 X72.9851 Y45.0850 F60.00
G01 X72.9762 Y44.9305 F60.00
G01 X72.9500 Y44.7774 F60.00
G01 X72.9074 Y44.6283 F60.00
G01 X72.8482 Y44.4854 F60.00
G01 X72.7729 Y44.3494 F60.00
G01 X72.6832 Y44.2233 F60.00
G01 X72.5798 Y44.1078 F60.00
G01 X72.4643 Y44.0044 F60.00
G01 X72.3382 Y43.9147 F60.00
G01 X72.2022 Y43.8394 F60.00
G01 X72.0593 Y43.7802 F60.00
G01 X71.9102 Y43.7376 F60.00
G01 X71.7571 Y43.7114 F60.00
G01 X71.6026 Y43.7025 F60.00
G01 X71.4481 Y43.7114 F60.00
G01 X71.2950 Y43.7376 F60.00
G01 X71.1459 Y43.7802 F60.00
G01 X71.0030 Y43.8394 F60.00
G01 X70.8670 Y43.9147 F60.00
G01 X70.7409 Y44.0044 F60.00
G01 X70.6254 Y44.1078 F60.00
G01 X70.5220 Y44.2233 F60.00
G01 X70.4323 Y44.3494 F60.00
G01 X70.3570 Y44.4854 F60.00
G01 X70.2978 Y44.6283 F60.00
G01 X70.2552 Y44.7774 F60.00
G01 X70.2290 Y44.9305 F60.00
G01 X70.2201 Y45.0850 F60.00
G01 X70.2290 Y45.2395 F60.00
G01 X70.2552 Y45.3926 F60.00
G01 X70.2978 Y45.5417 F60.00
G01 X70.3570 Y45.6846 F60.00
G01 X70.4323 Y45.8206 F60.00
G01 X70.5220 Y45.9467 F60.00
G01 X70.6255 Y46.0625 F60.00
G01 X70.6787 Y46.1105 F60.00
G01 X70.6872 Y46.1190 F60.00
G01 X70.6948 Y46.1283 F60.00
G01 X70.7192 Y46.1613 F60.00
G01 X70.7242 Y46.1687 F60.00
G01 X70.7287 Y46.1764 F60.00
G01 X70.7348 Y46.1900 F60.00
G01 X70.7393 Y46.2042 F60.00
G01 X70.7501 Y46.2495 F60.00
G01 X70.7518 Y46.2610 F60.00
G01 X70.7523 Y46.2697 F60.00
G01 X70.7521 Y46.2784 F60.00
G01 X70.7510 Y46.2900 F60.00
G01 X70.7429 Y46.3364 F60.00
G01 X70.7391 Y46.3507 F60.00
G01 X70.7336 Y46.3644 F60.00
G01 X70.7264 Y46.3773 F60.00
G01 X70.7020 Y46.4138 F60.00
G01 X70.6950 Y46.4231 F60.00
G01 X70.6872 Y46.4317 F60.00
G01 X68.8425 Y48.2768 F60.00
G01 X68.8358 Y48.2828 F60.00
G01 X68.8261 Y48.2900 F60.00
G01 X68.7906 Y48.3134 F60.00
G01 X68.7830 Y48.3178 F60.00
G01 X68.7751 Y48.3216 F60.00
G01 X68.7642 Y48.3258 F60.00
G01 X68.7529 Y48.3289 F60.00
G01 X68.7114 Y48.3371 F60.00
G01 X68.6999 Y48.3388 F60.00
G01 X68.6882 Y48.3394 F60.00
G01 X55.7408 Y48.3394 F60.00
G01 X55.7321 Y48.3390 F60.00
G01 X55.7207 Y48.3377 F60.00
G01 X55.6787 Y48.3295 F60.00
G01 X55.6671 Y48.3267 F60.00
G01 X55.6558 Y48.3226 F60.00
G01 X55.6424 Y48.3161 F60.00
G01 X55.6348 Y48.3113 F60.00
G01 X55.5999 Y48.2879 F60.00
G01 X55.5930 Y48.2826 F60.00
G01 X55.5845 Y48.2749 F60.00
G01 X55.5786 Y48.2686 F60.00
G01 X55.5731 Y48.2618 F60.00
G01 X55.5442 Y48.2191 F60.00
G01 X55.5385 Y48.2085 F60.00
G01 X55.5349 Y48.2003 F60.00
G01 X55.5320 Y48.1917 F60.00
G01 X55.5297 Y48.1830 F60.00
G01 X55.5210 Y48.1387 F60.00
G01 X55.5196 Y48.1274 F60.00
G01 X55.5192 Y48.1189 F60.00
G01 X55.5106 Y46.5761 F60.00
G01 X55.5113 Y46.5622 F60.00
G01 X55.5131 Y46.5511 F60.00
G01 X55.5223 Y46.5067 F60.00
G01 X55.5246 Y46.4984 F60.00
G01 X55.5285 Y46.4876 F60.00
G01 X55.5334 Y46.4772 F60.00
G01 X55.5392 Y46.4674 F60.00
G01 X55.5698 Y46.4257 F60.00
G01 X55.5778 Y46.4164 F60.00
G01 X55.5844 Y46.4100 F60.00
G01 X55.6888 Y46.3163 F60.00
G01 X55.7922 Y46.2007 F60.00
G01 X55.8819 Y46.0746 F60.00
G01 X55.9572 Y45.9386 F60.00
G01 X56.0164 Y45.7957 F60.00
G01 X56.0590 Y45.6466 F60.00
G01 X56.0852 Y45.4935 F60.00
G01 X56.0941 Y45.3390 F60.00
G01 X56.0852 Y45.1845 F60.00
G01 X56.0590 Y45.0314 F60.00
G01 X56.0164 Y44.8823 F60.00
G01 X55.9572 Y44.7394 F60.00
G01 X55.8819 Y44.6034 F60.00
G01 X55.7922 Y44.4773 F60.00
G01 X55.6888 Y44.3618 F60.00
G01 X55.5733 Y44.2584 F60.00
G01 X55.4472 Y44.1687 F60.00
G01 X55.3112 Y44.0934 F60.00
G01 X55.1683 Y44.0342 F60.00
G01 X55.0192 Y43.9916 F60.00
G01 X54.8661 Y43.9654 F60.00
G01 X54.7116 Y43.9565 F60.00
G01 X54.5571 Y43.9654 F60.00
G01 X54.4040 Y43.9916 F60.00
G01 X54.2549 Y44.0342 F60.00
G01 X54.1120 Y44.0934 F60.00
G01 X53.9760 Y44.1687 F60.00
G01 X53.8499 Y44.2584 F60.00
G01 X53.7344 Y44.3618 F60.00
G01 X53.6310 Y44.4773 F60.00
G01 X53.5413 Y44.6034 F60.00
G01 X53.4660 Y44.7394 F60.00
G01 X53.4068 Y44.8823 F60.00
G01 X53.3642 Y45.0314 F60.00
