(G-CODE GENERATED BY FLATCAM v8.994 - www.flatcam.org - Version Date: 2020/11/7)

(Name: Gerber_BoardOutline.GKO_cutout_cnc)
(Type: G-code from Geometry)
(Units: MM)

(Created on Monday, 28 June 2021 at 01:12)

(This preprocessor is used with a motion controller loaded with GRBL firmware.)
(It is configured to be compatible with almost any version of GRBL firmware.)

(TOOL DIAMETER: 1.0 mm)
(Feedrate_XY: 60.0 mm/min)
(Feedrate_Z: 60.0 mm/min)
(Feedrate rapids 1500.0 mm/min)

(Z_Cut: -1.8 mm)
(DepthPerCut: 0.6 mm <=>3 passes)
(Z_Move: 2.0 mm)
(Z Start: None mm)
(Z End: 15.0 mm)
(X,Y End: 0.0000, 0.0000 mm)
(Steps per circle: 64)
(Steps per circle: 64)
(Preprocessor Geometry: GRBL_11_no_M6)

(X range:    0.7969 ...   87.9507  mm)
(Y range:    0.9239 ...   51.9081  mm)

(Spindle Speed: 1000.0 RPM)
G21
G90
G17
G94


G01 F60.00

M5             
G00 Z15.0000
G00 X0.0000 Y0.0000                
T1
(MSG, Change to Tool Dia = 1.0000)

G00 Z15.0000
        
M03 S1000.0
G01 F60.00
G00 X0.7969 Y25.5160
G01 F60.00
G01 Z-0.6000
G01 F60.00
G01 X0.7969 Y1.5239 F60.00
G01 X0.7998 Y1.4651 F60.00
G01 X0.8085 Y1.4069 F60.00
G01 X0.8228 Y1.3498 F60.00
G01 X0.8426 Y1.2943 F60.00
G01 X0.8678 Y1.2411 F60.00
G01 X0.8981 Y1.1906 F60.00
G01 X0.9331 Y1.1433 F60.00
G01 X0.9727 Y1.0997 F60.00
G01 X1.0163 Y1.0601 F60.00
G01 X1.0636 Y1.0251 F60.00
G01 X1.1141 Y0.9948 F60.00
G01 X1.1673 Y0.9696 F60.00
G01 X1.2228 Y0.9498 F60.00
G01 X1.2799 Y0.9355 F60.00
G01 X1.3381 Y0.9268 F60.00
G01 X1.3969 Y0.9239 F60.00
G01 X43.4738 Y0.9239 F60.00
G00 X43.4738 Y0.9239
G01 F60.00
G01 Z-1.2000
G01 F60.00
G01 X1.3969 Y0.9239 F60.00
G01 X1.3381 Y0.9268 F60.00
G01 X1.2799 Y0.9355 F60.00
G01 X1.2228 Y0.9498 F60.00
G01 X1.1673 Y0.9696 F60.00
G01 X1.1141 Y0.9948 F60.00
G01 X1.0636 Y1.0251 F60.00
G01 X1.0163 Y1.0601 F60.00
G01 X0.9727 Y1.0997 F60.00
G01 X0.9331 Y1.1433 F60.00
G01 X0.8981 Y1.1906 F60.00
G01 X0.8678 Y1.2411 F60.00
G01 X0.8426 Y1.2943 F60.00
G01 X0.8228 Y1.3498 F60.00
G01 X0.8085 Y1.4069 F60.00
G01 X0.7998 Y1.4651 F60.00
G01 X0.7969 Y1.5239 F60.00
G01 X0.7969 Y25.5160 F60.00
G00 X0.7969 Y25.5160
G01 F60.00
G01 Z-1.8000
G01 F60.00
G01 X0.7969 Y1.5239 F60.00
G01 X0.7998 Y1.4651 F60.00
G01 X0.8085 Y1.4069 F60.00
G01 X0.8228 Y1.3498 F60.00
G01 X0.8426 Y1.2943 F60.00
G01 X0.8678 Y1.2411 F60.00
G01 X0.8981 Y1.1906 F60.00
G01 X0.9331 Y1.1433 F60.00
G01 X0.9727 Y1.0997 F60.00
G01 X1.0163 Y1.0601 F60.00
G01 X1.0636 Y1.0251 F60.00
G01 X1.1141 Y0.9948 F60.00
G01 X1.1673 Y0.9696 F60.00
G01 X1.2228 Y0.9498 F60.00
G01 X1.2799 Y0.9355 F60.00
G01 X1.3381 Y0.9268 F60.00
G01 X1.3969 Y0.9239 F60.00
G01 X43.4738 Y0.9239 F60.00
G00 Z2.0000
G00 X0.7969 Y27.5160
G01 F60.00
G01 Z-0.6000
G01 F60.00
G01 X0.7969 Y51.3081 F60.00
G01 X0.7998 Y51.3669 F60.00
G01 X0.8085 Y51.4251 F60.00
G01 X0.8228 Y51.4822 F60.00
G01 X0.8426 Y51.5377 F60.00
G01 X0.8678 Y51.5909 F60.00
G01 X0.8981 Y51.6414 F60.00
G01 X0.9331 Y51.6887 F60.00
G01 X0.9727 Y51.7323 F60.00
G01 X1.0163 Y51.7719 F60.00
G01 X1.0636 Y51.8069 F60.00
G01 X1.1141 Y51.8372 F60.00
G01 X1.1673 Y51.8624 F60.00
G01 X1.2228 Y51.8822 F60.00
G01 X1.2799 Y51.8965 F60.00
G01 X1.3381 Y51.9052 F60.00
G01 X1.3969 Y51.9081 F60.00
G01 X43.4738 Y51.9081 F60.00
G00 X43.4738 Y51.9081
G01 F60.00
G01 Z-1.2000
G01 F60.00
G01 X1.3969 Y51.9081 F60.00
G01 X1.3381 Y51.9052 F60.00
G01 X1.2799 Y51.8965 F60.00
G01 X1.2228 Y51.8822 F60.00
G01 X1.1673 Y51.8624 F60.00
G01 X1.1141 Y51.8372 F60.00
G01 X1.0636 Y51.8069 F60.00
G01 X1.0163 Y51.7719 F60.00
G01 X0.9727 Y51.7323 F60.00
G01 X0.9331 Y51.6887 F60.00
G01 X0.8981 Y51.6414 F60.00
G01 X0.8678 Y51.5909 F60.00
G01 X0.8426 Y51.5377 F60.00
G01 X0.8228 Y51.4822 F60.00
G01 X0.8085 Y51.4251 F60.00
G01 X0.7998 Y51.3669 F60.00
G01 X0.7969 Y51.3081 F60.00
G01 X0.7969 Y27.5160 F60.00
G00 X0.7969 Y27.5160
G01 F60.00
G01 Z-1.8000
G01 F60.00
G01 X0.7969 Y51.3081 F60.00
G01 X0.7998 Y51.3669 F60.00
G01 X0.8085 Y51.4251 F60.00
G01 X0.8228 Y51.4822 F60.00
G01 X0.8426 Y51.5377 F60.00
G01 X0.8678 Y51.5909 F60.00
G01 X0.8981 Y51.6414 F60.00
G01 X0.9331 Y51.6887 F60.00
G01 X0.9727 Y51.7323 F60.00
G01 X1.0163 Y51.7719 F60.00
G01 X1.0636 Y51.8069 F60.00
G01 X1.1141 Y51.8372 F60.00
G01 X1.1673 Y51.8624 F60.00
G01 X1.2228 Y51.8822 F60.00
G01 X1.2799 Y51.8965 F60.00
G01 X1.3381 Y51.9052 F60.00
G01 X1.3969 Y51.9081 F60.00
G01 X43.4738 Y51.9081 F60.00
G00 Z2.0000
G00 X45.4738 Y51.9081
G01 F60.00
G01 Z-0.6000
G01 F60.00
G01 X87.3507 Y51.9081 F60.00
G01 X87.4095 Y51.9052 F60.00
G01 X87.4677 Y51.8965 F60.00
G01 X87.5248 Y51.8822 F60.00
G01 X87.5803 Y51.8624 F60.00
G01 X87.6335 Y51.8372 F60.00
G01 X87.6840 Y51.8069 F60.00
G01 X87.7313 Y51.7719 F60.00
G01 X87.7749 Y51.7323 F60.00
G01 X87.8145 Y51.6887 F60.00
G01 X87.8495 Y51.6414 F60.00
G01 X87.8798 Y51.5909 F60.00
G01 X87.9050 Y51.5377 F60.00
G01 X87.9248 Y51.4822 F60.00
G01 X87.9391 Y51.4251 F60.00
G01 X87.9478 Y51.3669 F60.00
G01 X87.9507 Y51.3081 F60.00
G01 X87.9507 Y27.5160 F60.00
G00 X87.9507 Y27.5160
G01 F60.00
G01 Z-1.2000
G01 F60.00
G01 X87.9507 Y51.3081 F60.00
G01 X87.9478 Y51.3669 F60.00
G01 X87.9391 Y51.4251 F60.00
G01 X87.9248 Y51.4822 F60.00
G01 X87.9050 Y51.5377 F60.00
G01 X87.8798 Y51.5909 F60.00
G01 X87.8495 Y51.6414 F60.00
G01 X87.8145 Y51.6887 F60.00
G01 X87.7749 Y51.7323 F60.00
G01 X87.7313 Y51.7719 F60.00
G01 X87.6840 Y51.8069 F60.00
G01 X87.6335 Y51.8372 F60.00
G01 X87.5803 Y51.8624 F60.00
G01 X87.5248 Y51.8822 F60.00
G01 X87.4677 Y51.8965 F60.00
G01 X87.4095 Y51.9052 F60.00
G01 X87.3507 Y51.9081 F60.00
G01 X45.4738 Y51.9081 F60.00
G00 X45.4738 Y51.9081
G01 F60.00
G01 Z-1.8000
G01 F60.00
G01 X87.3507 Y51.9081 F60.00
G01 X87.4095 Y51.9052 F60.00
G01 X87.4677 Y51.8965 F60.00
G01 X87.5248 Y51.8822 F60.00
G01 X87.5803 Y51.8624 F60.00
G01 X87.6335 Y51.8372 F60.00
G01 X87.6840 Y51.8069 F60.00
G01 X87.7313 Y51.7719 F60.00
G01 X87.7749 Y51.7323 F60.00
G01 X87.8145 Y51.6887 F60.00
G01 X87.8495 Y51.6414 F60.00
G01 X87.8798 Y51.5909 F60.00
G01 X87.9050 Y51.5377 F60.00
G01 X87.9248 Y51.4822 F60.00
G01 X87.9391 Y51.4251 F60.00
G01 X87.9478 Y51.3669 F60.00
G01 X87.9507 Y51.3081 F60.00
G01 X87.9507 Y27.5160 F60.00
G00 Z2.0000
G00 X87.9507 Y25.5160
G01 F60.00
G01 Z-0.6000
G01 F60.00
G01 X87.9507 Y1.5239 F60.00
G01 X87.9478 Y1.4651 F60.00
G01 X87.9391 Y1.4069 F60.00
G01 X87.9248 Y1.3498 F60.00
G01 X87.9050 Y1.2943 F60.00
G01 X87.8798 Y1.2411 F60.00
G01 X87.8495 Y1.1906 F60.00
G01 X87.8145 Y1.1433 F60.00
G01 X87.7749 Y1.0997 F60.00
G01 X87.7313 Y1.0601 F60.00
G01 X87.6840 Y1.0251 F60.00
G01 X87.6335 Y0.9948 F60.00
G01 X87.5803 Y0.9696 F60.00
G01 X87.5248 Y0.9498 F60.00
G01 X87.4677 Y0.9355 F60.00
G01 X87.4095 Y0.9268 F60.00
G01 X87.3507 Y0.9239 F60.00
G01 X45.4738 Y0.9239 F60.00
G00 X45.4738 Y0.9239
G01 F60.00
G01 Z-1.2000
G01 F60.00
G01 X87.3507 Y0.9239 F60.00
G01 X87.4095 Y0.9268 F60.00
G01 X87.4677 Y0.9355 F60.00
G01 X87.5248 Y0.9498 F60.00
G01 X87.5803 Y0.9696 F60.00
G01 X87.6335 Y0.9948 F60.00
G01 X87.6840 Y1.0251 F60.00
G01 X87.7313 Y1.0601 F60.00
G01 X87.7749 Y1.0997 F60.00
G01 X87.8145 Y1.1433 F60.00
G01 X87.8495 Y1.1906 F60.00
G01 X87.8798 Y1.2411 F60.00
G01 X87.9050 Y1.2943 F60.00
G01 X87.9248 Y1.3498 F60.00
G01 X87.9391 Y1.4069 F60.00
G01 X87.9478 Y1.4651 F60.00
G01 X87.9507 Y1.5239 F60.00
G01 X87.9507 Y25.5160 F60.00
G00 X87.9507 Y25.5160
G01 F60.00
G01 Z-1.8000
G01 F60.00
G01 X87.9507 Y1.5239 F60.00
G01 X87.9478 Y1.4651 F60.00
G01 X87.9391 Y1.4069 F60.00
G01 X87.9248 Y1.3498 F60.00
G01 X87.9050 Y1.2943 F60.00
G01 X87.8798 Y1.2411 F60.00
G01 X87.8495 Y1.1906 F60.00
G01 X87.8145 Y1.1433 F60.00
G01 X87.7749 Y1.0997 F60.00
G01 X87.7313 Y1.0601 F60.00
G01 X87.6840 Y1.0251 F60.00
G01 X87.6335 Y0.9948 F60.00
G01 X87.5803 Y0.9696 F60.00
G01 X87.5248 Y0.9498 F60.00
G01 X87.4677 Y0.9355 F60.00
G01 X87.4095 Y0.9268 F60.00
G01 X87.3507 Y0.9239 F60.00
G01 X45.4738 Y0.9239 F60.00
G00 Z2.0000
M05
G00 Z2.0000
G00 Z15.00
G00 X0.0 Y0.0


